(G-CODE GENERATED BY FLATCAM v8.991 - www.flatcam.org - Version Date: 2019/12/27)

(Name: Alignment Drills_2_mill_cnc)
(Type: G-code from Geometry)
(Units: MM)

(Created on Thursday, 30 April 2020 at 15:14)

(TOOL DIAMETER: 1.2 mm)
(Feedrate: 120.0 mm/min)
(Feedrate_Z: 60.0 mm/min)
(Feedrate rapids 1500.0 mm/min)

(Z_Cut: -5.0 mm)
(Z_Move: 2.0 mm)
(Z Toolchange: 15.0 mm)
(X,Y Toolchange: 0.0000, 0.0000 mm)
(Z Start: None mm)
(Z End: 15.0 mm)
(Steps per circle: 64)
(Preprocessor Geometry: default)

(X range:   -0.9875 ...   45.9875  mm)
(Y range:   35.0125 ...   36.9875  mm)

(Spindle Speed: None RPM)
G21
G90
G94




G01 F120.00
G00 Z2.0000

M03
G00 X0.9875 Y36.0000
G01 F60.00
G01 Z-5.0000
G01 F120.00
G01 X0.9827 Y35.9032
G01 X0.9685 Y35.8073
G01 X0.9450 Y35.7133
G01 X0.9123 Y35.6221
G01 X0.8709 Y35.5345
G01 X0.8211 Y35.4514
G01 X0.7633 Y35.3735
G01 X0.6983 Y35.3017
G01 X0.6265 Y35.2367
G01 X0.5486 Y35.1789
G01 X0.4655 Y35.1291
G01 X0.3779 Y35.0877
G01 X0.2867 Y35.0550
G01 X0.1927 Y35.0315
G01 X0.0968 Y35.0173
G01 X0.0000 Y35.0125
G01 X-0.0968 Y35.0173
G01 X-0.1927 Y35.0315
G01 X-0.2867 Y35.0550
G01 X-0.3779 Y35.0877
G01 X-0.4655 Y35.1291
G01 X-0.5486 Y35.1789
G01 X-0.6265 Y35.2367
G01 X-0.6983 Y35.3017
G01 X-0.7633 Y35.3735
G01 X-0.8211 Y35.4514
G01 X-0.8709 Y35.5345
G01 X-0.9123 Y35.6221
G01 X-0.9450 Y35.7133
G01 X-0.9685 Y35.8073
G01 X-0.9827 Y35.9032
G01 X-0.9875 Y36.0000
G01 X-0.9827 Y36.0968
G01 X-0.9685 Y36.1927
G01 X-0.9450 Y36.2867
G01 X-0.9123 Y36.3779
G01 X-0.8709 Y36.4655
G01 X-0.8211 Y36.5486
G01 X-0.7633 Y36.6265
G01 X-0.6983 Y36.6983
G01 X-0.6265 Y36.7633
G01 X-0.5486 Y36.8211
G01 X-0.4655 Y36.8709
G01 X-0.3779 Y36.9123
G01 X-0.2867 Y36.9450
G01 X-0.1927 Y36.9685
G01 X-0.0968 Y36.9827
G01 X-0.0000 Y36.9875
G01 X0.0968 Y36.9827
G01 X0.1927 Y36.9685
G01 X0.2867 Y36.9450
G01 X0.3779 Y36.9123
G01 X0.4655 Y36.8709
G01 X0.5486 Y36.8211
G01 X0.6265 Y36.7633
G01 X0.6983 Y36.6983
G01 X0.7633 Y36.6265
G01 X0.8211 Y36.5486
G01 X0.8709 Y36.4655
G01 X0.9123 Y36.3779
G01 X0.9450 Y36.2867
G01 X0.9685 Y36.1927
G01 X0.9827 Y36.0968
G01 X0.9875 Y36.0000
G00 Z2.0000
G00 X0.9875 Y36.0000
G01 F60.00
G01 Z-5.0000
G01 F120.00
G01 X0.9827 Y35.9032
G01 X0.9685 Y35.8073
G01 X0.9450 Y35.7133
G01 X0.9123 Y35.6221
G01 X0.8709 Y35.5345
G01 X0.8211 Y35.4514
G01 X0.7633 Y35.3735
G01 X0.6983 Y35.3017
G01 X0.6265 Y35.2367
G01 X0.5486 Y35.1789
G01 X0.4655 Y35.1291
G01 X0.3779 Y35.0877
G01 X0.2867 Y35.0550
G01 X0.1927 Y35.0315
G01 X0.0968 Y35.0173
G01 X0.0000 Y35.0125
G01 X-0.0968 Y35.0173
G01 X-0.1927 Y35.0315
G01 X-0.2867 Y35.0550
G01 X-0.3779 Y35.0877
G01 X-0.4655 Y35.1291
G01 X-0.5486 Y35.1789
G01 X-0.6265 Y35.2367
G01 X-0.6983 Y35.3017
G01 X-0.7633 Y35.3735
G01 X-0.8211 Y35.4514
G01 X-0.8709 Y35.5345
G01 X-0.9123 Y35.6221
G01 X-0.9450 Y35.7133
G01 X-0.9685 Y35.8073
G01 X-0.9827 Y35.9032
G01 X-0.9875 Y36.0000
G01 X-0.9827 Y36.0968
G01 X-0.9685 Y36.1927
G01 X-0.9450 Y36.2867
G01 X-0.9123 Y36.3779
G01 X-0.8709 Y36.4655
G01 X-0.8211 Y36.5486
G01 X-0.7633 Y36.6265
G01 X-0.6983 Y36.6983
G01 X-0.6265 Y36.7633
G01 X-0.5486 Y36.8211
G01 X-0.4655 Y36.8709
G01 X-0.3779 Y36.9123
G01 X-0.2867 Y36.9450
G01 X-0.1927 Y36.9685
G01 X-0.0968 Y36.9827
G01 X-0.0000 Y36.9875
G01 X0.0968 Y36.9827
G01 X0.1927 Y36.9685
G01 X0.2867 Y36.9450
G01 X0.3779 Y36.9123
G01 X0.4655 Y36.8709
G01 X0.5486 Y36.8211
G01 X0.6265 Y36.7633
G01 X0.6983 Y36.6983
G01 X0.7633 Y36.6265
G01 X0.8211 Y36.5486
G01 X0.8709 Y36.4655
G01 X0.9123 Y36.3779
G01 X0.9450 Y36.2867
G01 X0.9685 Y36.1927
G01 X0.9827 Y36.0968
G01 X0.9875 Y36.0000
G00 Z2.0000
G00 X45.9875 Y36.0000
G01 F60.00
G01 Z-5.0000
G01 F120.00
G01 X45.9827 Y35.9032
G01 X45.9685 Y35.8073
G01 X45.9450 Y35.7133
G01 X45.9123 Y35.6221
G01 X45.8709 Y35.5345
G01 X45.8211 Y35.4514
G01 X45.7633 Y35.3735
G01 X45.6983 Y35.3017
G01 X45.6265 Y35.2367
G01 X45.5486 Y35.1789
G01 X45.4655 Y35.1291
G01 X45.3779 Y35.0877
G01 X45.2867 Y35.0550
G01 X45.1927 Y35.0315
G01 X45.0968 Y35.0173
G01 X45.0000 Y35.0125
G01 X44.9032 Y35.0173
G01 X44.8073 Y35.0315
G01 X44.7133 Y35.0550
G01 X44.6221 Y35.0877
G01 X44.5345 Y35.1291
G01 X44.4514 Y35.1789
G01 X44.3735 Y35.2367
G01 X44.3017 Y35.3017
G01 X44.2367 Y35.3735
G01 X44.1789 Y35.4514
G01 X44.1291 Y35.5345
G01 X44.0877 Y35.6221
G01 X44.0550 Y35.7133
G01 X44.0315 Y35.8073
G01 X44.0173 Y35.9032
G01 X44.0125 Y36.0000
G01 X44.0173 Y36.0968
G01 X44.0315 Y36.1927
G01 X44.0550 Y36.2867
G01 X44.0877 Y36.3779
G01 X44.1291 Y36.4655
G01 X44.1789 Y36.5486
G01 X44.2367 Y36.6265
G01 X44.3017 Y36.6983
G01 X44.3735 Y36.7633
G01 X44.4514 Y36.8211
G01 X44.5345 Y36.8709
G01 X44.6221 Y36.9123
G01 X44.7133 Y36.9450
G01 X44.8073 Y36.9685
G01 X44.9032 Y36.9827
G01 X45.0000 Y36.9875
G01 X45.0968 Y36.9827
G01 X45.1927 Y36.9685
G01 X45.2867 Y36.9450
G01 X45.3779 Y36.9123
G01 X45.4655 Y36.8709
G01 X45.5486 Y36.8211
G01 X45.6265 Y36.7633
G01 X45.6983 Y36.6983
G01 X45.7633 Y36.6265
G01 X45.8211 Y36.5486
G01 X45.8709 Y36.4655
G01 X45.9123 Y36.3779
G01 X45.9450 Y36.2867
G01 X45.9685 Y36.1927
G01 X45.9827 Y36.0968
G01 X45.9875 Y36.0000
G00 Z2.0000
G00 X45.9875 Y36.0000
G01 F60.00
G01 Z-5.0000
G01 F120.00
G01 X45.9827 Y35.9032
G01 X45.9685 Y35.8073
G01 X45.9450 Y35.7133
G01 X45.9123 Y35.6221
G01 X45.8709 Y35.5345
G01 X45.8211 Y35.4514
G01 X45.7633 Y35.3735
G01 X45.6983 Y35.3017
G01 X45.6265 Y35.2367
G01 X45.5486 Y35.1789
G01 X45.4655 Y35.1291
G01 X45.3779 Y35.0877
G01 X45.2867 Y35.0550
G01 X45.1927 Y35.0315
G01 X45.0968 Y35.0173
G01 X45.0000 Y35.0125
G01 X44.9032 Y35.0173
G01 X44.8073 Y35.0315
G01 X44.7133 Y35.0550
G01 X44.6221 Y35.0877
G01 X44.5345 Y35.1291
G01 X44.4514 Y35.1789
G01 X44.3735 Y35.2367
G01 X44.3017 Y35.3017
G01 X44.2367 Y35.3735
G01 X44.1789 Y35.4514
G01 X44.1291 Y35.5345
G01 X44.0877 Y35.6221
G01 X44.0550 Y35.7133
G01 X44.0315 Y35.8073
G01 X44.0173 Y35.9032
G01 X44.0125 Y36.0000
G01 X44.0173 Y36.0968
G01 X44.0315 Y36.1927
G01 X44.0550 Y36.2867
G01 X44.0877 Y36.3779
G01 X44.1291 Y36.4655
G01 X44.1789 Y36.5486
G01 X44.2367 Y36.6265
G01 X44.3017 Y36.6983
G01 X44.3735 Y36.7633
G01 X44.4514 Y36.8211
G01 X44.5345 Y36.8709
G01 X44.6221 Y36.9123
G01 X44.7133 Y36.9450
G01 X44.8073 Y36.9685
G01 X44.9032 Y36.9827
G01 X45.0000 Y36.9875
G01 X45.0968 Y36.9827
G01 X45.1927 Y36.9685
G01 X45.2867 Y36.9450
G01 X45.3779 Y36.9123
G01 X45.4655 Y36.8709
G01 X45.5486 Y36.8211
G01 X45.6265 Y36.7633
G01 X45.6983 Y36.6983
G01 X45.7633 Y36.6265
G01 X45.8211 Y36.5486
G01 X45.8709 Y36.4655
G01 X45.9123 Y36.3779
G01 X45.9450 Y36.2867
G01 X45.9685 Y36.1927
G01 X45.9827 Y36.0968
G01 X45.9875 Y36.0000
G00 Z2.0000
M05
G00 Z2.0000
G00 Z15.00
G00 X0.0 Y0.0

