(G-CODE GENERATED BY FLATCAM v8.991 - www.flatcam.org - Version Date: 2019/12/27)

(Name: DiscreteAmp-B_Cu.gbr_iso_cnc)
(Type: G-code from Geometry)
(Units: MM)

(Created on Thursday, 30 April 2020 at 14:20)

(TOOL DIAMETER: 0.2 mm)
(Feedrate: 120.0 mm/min)
(Feedrate_Z: 60.0 mm/min)
(Feedrate rapids 1500.0 mm/min)

(Z_Cut: -0.1 mm)
(Z_Move: 2.0 mm)
(Z Toolchange: 15.0 mm)
(X,Y Toolchange: 0.0000, 0.0000 mm)
(Z Start: None mm)
(Z End: 15.0 mm)
(Steps per circle: 64)
(Preprocessor Geometry: default)

(X range:    1.9097 ...   48.6403  mm)
(Y range:    3.9008 ...   65.5992  mm)

(Spindle Speed: None RPM)
G21
G90
G94




G01 F120.00
G00 Z2.0000

M03
G00 X7.7902 Y7.6833
G01 F60.00
G01 Z-0.1000
G01 F120.00
G01 X7.7811 Y7.6795
G01 X7.7101 Y7.6459
G01 X7.7015 Y7.6413
G01 X7.6341 Y7.6009
G01 X7.6260 Y7.5955
G01 X7.5629 Y7.5487
G01 X7.5553 Y7.5425
G01 X7.4972 Y7.4898
G01 X7.4902 Y7.4828
G01 X7.4375 Y7.4247
G01 X7.4313 Y7.4171
G01 X7.3845 Y7.3540
G01 X7.3791 Y7.3459
G01 X7.3387 Y7.2785
G01 X7.3341 Y7.2699
G01 X7.3005 Y7.1989
G01 X7.2967 Y7.1898
G01 X7.2703 Y7.1159
G01 X7.2674 Y7.1065
G01 X7.2484 Y7.0304
G01 X7.2465 Y7.0207
G01 X7.2349 Y6.9431
G01 X7.2340 Y6.9333
G01 X7.2301 Y6.8549
G01 X7.2301 Y6.8451
G01 X7.2340 Y6.7667
G01 X7.2349 Y6.7569
G01 X7.2465 Y6.6793
G01 X7.2484 Y6.6696
G01 X7.2674 Y6.5935
G01 X7.2703 Y6.5841
G01 X7.2967 Y6.5102
G01 X7.3005 Y6.5011
G01 X7.3341 Y6.4301
G01 X7.3387 Y6.4215
G01 X7.3791 Y6.3541
G01 X7.3845 Y6.3460
G01 X7.4313 Y6.2829
G01 X7.4375 Y6.2753
G01 X7.4902 Y6.2172
G01 X7.4972 Y6.2102
G01 X7.5553 Y6.1575
G01 X7.5629 Y6.1513
G01 X7.6260 Y6.1045
G01 X7.6341 Y6.0991
G01 X7.7015 Y6.0587
G01 X7.7101 Y6.0541
G01 X7.7811 Y6.0205
G01 X7.7902 Y6.0167
G01 X7.8641 Y5.9903
G01 X7.8735 Y5.9874
G01 X7.9496 Y5.9684
G01 X7.9593 Y5.9665
G01 X8.0369 Y5.9549
G01 X8.0467 Y5.9540
G01 X8.1251 Y5.9501
G01 X8.1349 Y5.9501
G01 X8.1788 Y5.9523
G01 X9.0191 Y5.1122
G01 X9.0555 Y5.0792
G01 X9.0631 Y5.0730
G01 X9.1025 Y5.0437
G01 X9.1107 Y5.0383
G01 X9.1528 Y5.0130
G01 X9.1614 Y5.0084
G01 X9.2058 Y4.9874
G01 X9.2149 Y4.9837
G01 X9.2611 Y4.9671
G01 X9.2705 Y4.9643
G01 X9.3181 Y4.9524
G01 X9.3277 Y4.9504
G01 X9.3763 Y4.9432
G01 X9.3861 Y4.9423
G01 X9.4400 Y4.9397
G01 X13.5587 Y4.9397
G01 X13.5682 Y4.9249
G01 X13.6267 Y4.8460
G01 X13.6329 Y4.8385
G01 X13.6988 Y4.7657
G01 X13.7057 Y4.7588
G01 X13.7785 Y4.6929
G01 X13.7860 Y4.6867
G01 X13.8649 Y4.6282
G01 X13.8730 Y4.6228
G01 X13.9572 Y4.5723
G01 X13.9658 Y4.5677
G01 X14.0546 Y4.5257
G01 X14.0636 Y4.5220
G01 X14.1560 Y4.4889
G01 X14.1654 Y4.4861
G01 X14.2606 Y4.4622
G01 X14.2702 Y4.4603
G01 X14.3673 Y4.4459
G01 X14.3771 Y4.4449
G01 X14.4751 Y4.4401
G01 X14.4849 Y4.4401
G01 X14.5829 Y4.4449
G01 X14.5927 Y4.4459
G01 X14.6898 Y4.4603
G01 X14.6994 Y4.4622
G01 X14.7946 Y4.4861
G01 X14.8040 Y4.4889
G01 X14.8964 Y4.5220
G01 X14.9054 Y4.5257
G01 X14.9942 Y4.5677
G01 X15.0028 Y4.5723
G01 X15.0870 Y4.6228
G01 X15.0951 Y4.6282
G01 X15.1740 Y4.6867
G01 X15.1815 Y4.6929
G01 X15.2543 Y4.7588
G01 X15.2612 Y4.7657
G01 X15.3271 Y4.8385
G01 X15.3333 Y4.8460
G01 X15.3918 Y4.9249
G01 X15.3972 Y4.9330
G01 X15.4477 Y5.0172
G01 X15.4523 Y5.0258
G01 X15.4943 Y5.1146
G01 X15.4980 Y5.1236
G01 X15.5311 Y5.2160
G01 X15.5339 Y5.2254
G01 X15.5578 Y5.3206
G01 X15.5597 Y5.3302
G01 X15.5741 Y5.4273
G01 X15.5751 Y5.4371
G01 X15.5799 Y5.5351
G01 X15.5799 Y5.5449
G01 X15.5751 Y5.6429
G01 X15.5741 Y5.6527
G01 X15.5597 Y5.7498
G01 X15.5578 Y5.7594
G01 X15.5339 Y5.8546
G01 X15.5311 Y5.8640
G01 X15.4980 Y5.9564
G01 X15.4943 Y5.9654
G01 X15.4523 Y6.0542
G01 X15.4477 Y6.0628
G01 X15.3972 Y6.1470
G01 X15.3918 Y6.1551
G01 X15.3333 Y6.2340
G01 X15.3271 Y6.2415
G01 X15.2612 Y6.3143
G01 X15.2543 Y6.3212
G01 X15.1815 Y6.3871
G01 X15.1740 Y6.3933
G01 X15.0951 Y6.4518
G01 X15.0870 Y6.4572
G01 X15.0028 Y6.5077
G01 X14.9942 Y6.5123
G01 X14.9054 Y6.5543
G01 X14.8964 Y6.5580
G01 X14.8040 Y6.5911
G01 X14.7946 Y6.5939
G01 X14.6994 Y6.6178
G01 X14.6898 Y6.6197
G01 X14.5927 Y6.6341
G01 X14.5829 Y6.6351
G01 X14.4849 Y6.6399
G01 X14.4751 Y6.6399
G01 X14.3771 Y6.6351
G01 X14.3673 Y6.6341
G01 X14.2702 Y6.6197
G01 X14.2606 Y6.6178
G01 X14.1654 Y6.5939
G01 X14.1560 Y6.5911
G01 X14.0636 Y6.5580
G01 X14.0546 Y6.5543
G01 X13.9658 Y6.5123
G01 X13.9572 Y6.5077
G01 X13.8730 Y6.4572
G01 X13.8649 Y6.4518
G01 X13.7860 Y6.3933
G01 X13.7785 Y6.3871
G01 X13.7057 Y6.3212
G01 X13.6988 Y6.3143
G01 X13.6329 Y6.2415
G01 X13.6267 Y6.2340
G01 X13.5682 Y6.1551
G01 X13.5587 Y6.1403
G01 X9.6886 Y6.1403
G01 X9.0277 Y6.8012
G01 X9.0299 Y6.8451
G01 X9.0299 Y6.8549
G01 X9.0260 Y6.9333
G01 X9.0251 Y6.9431
G01 X9.0135 Y7.0207
G01 X9.0116 Y7.0304
G01 X8.9926 Y7.1065
G01 X8.9897 Y7.1159
G01 X8.9633 Y7.1898
G01 X8.9595 Y7.1989
G01 X8.9259 Y7.2699
G01 X8.9213 Y7.2785
G01 X8.8809 Y7.3459
G01 X8.8755 Y7.3540
G01 X8.8287 Y7.4171
G01 X8.8225 Y7.4247
G01 X8.7698 Y7.4828
G01 X8.7628 Y7.4898
G01 X8.7047 Y7.5425
G01 X8.6971 Y7.5487
G01 X8.6340 Y7.5955
G01 X8.6259 Y7.6009
G01 X8.5585 Y7.6413
G01 X8.5499 Y7.6459
G01 X8.4789 Y7.6795
G01 X8.4698 Y7.6833
G01 X8.3959 Y7.7097
G01 X8.3865 Y7.7126
G01 X8.3104 Y7.7316
G01 X8.3007 Y7.7335
G01 X8.2231 Y7.7451
G01 X8.2133 Y7.7460
G01 X8.1349 Y7.7499
G01 X8.1251 Y7.7499
G01 X8.0467 Y7.7460
G01 X8.0369 Y7.7451
G01 X7.9593 Y7.7335
G01 X7.9496 Y7.7316
G01 X7.8735 Y7.7126
G01 X7.8641 Y7.7097
G01 X7.7902 Y7.6833
G00 Z2.0000
G00 X7.7295 Y7.8527
G01 F60.00
G01 Z-0.1000
G01 F120.00
G01 X7.7041 Y7.8422
G01 X7.6332 Y7.8087
G01 X7.6089 Y7.7957
G01 X7.5416 Y7.7553
G01 X7.5187 Y7.7401
G01 X7.4557 Y7.6933
G01 X7.4344 Y7.6759
G01 X7.3763 Y7.6232
G01 X7.3568 Y7.6037
G01 X7.3041 Y7.5456
G01 X7.2867 Y7.5243
G01 X7.2399 Y7.4613
G01 X7.2247 Y7.4384
G01 X7.1843 Y7.3711
G01 X7.1713 Y7.3468
G01 X7.1378 Y7.2759
G01 X7.1273 Y7.2505
G01 X7.1008 Y7.1766
G01 X7.0928 Y7.1503
G01 X7.0738 Y7.0741
G01 X7.0684 Y7.0472
G01 X7.0569 Y6.9695
G01 X7.0542 Y6.9422
G01 X7.0503 Y6.8637
G01 X7.0503 Y6.8363
G01 X7.0542 Y6.7578
G01 X7.0569 Y6.7305
G01 X7.0684 Y6.6528
G01 X7.0738 Y6.6259
G01 X7.0928 Y6.5497
G01 X7.1008 Y6.5234
G01 X7.1273 Y6.4495
G01 X7.1378 Y6.4241
G01 X7.1713 Y6.3532
G01 X7.1843 Y6.3289
G01 X7.2247 Y6.2616
G01 X7.2399 Y6.2387
G01 X7.2867 Y6.1757
G01 X7.3041 Y6.1544
G01 X7.3568 Y6.0963
G01 X7.3763 Y6.0768
G01 X7.4344 Y6.0241
G01 X7.4557 Y6.0067
G01 X7.5187 Y5.9599
G01 X7.5416 Y5.9447
G01 X7.6089 Y5.9043
G01 X7.6332 Y5.8913
G01 X7.7041 Y5.8578
G01 X7.7295 Y5.8473
G01 X7.8034 Y5.8208
G01 X7.8297 Y5.8128
G01 X7.9059 Y5.7938
G01 X7.9328 Y5.7884
G01 X8.0105 Y5.7769
G01 X8.0378 Y5.7742
G01 X8.1057 Y5.7709
G01 X8.8883 Y4.9883
G01 X8.8982 Y4.9788
G01 X8.9346 Y4.9458
G01 X8.9558 Y4.9284
G01 X8.9953 Y4.8992
G01 X9.0181 Y4.8839
G01 X9.0602 Y4.8587
G01 X9.0845 Y4.8457
G01 X9.1288 Y4.8247
G01 X9.1542 Y4.8142
G01 X9.2005 Y4.7977
G01 X9.2268 Y4.7897
G01 X9.2744 Y4.7778
G01 X9.3013 Y4.7724
G01 X9.3499 Y4.7652
G01 X9.3772 Y4.7625
G01 X9.4263 Y4.7601
G01 X9.4400 Y4.7597
G01 X13.4666 Y4.7597
G01 X13.4821 Y4.7388
G01 X13.4995 Y4.7176
G01 X13.5654 Y4.6449
G01 X13.5849 Y4.6254
G01 X13.6576 Y4.5595
G01 X13.6788 Y4.5421
G01 X13.7576 Y4.4836
G01 X13.7805 Y4.4684
G01 X13.8647 Y4.4179
G01 X13.8889 Y4.4050
G01 X13.9776 Y4.3630
G01 X14.0030 Y4.3525
G01 X14.0954 Y4.3194
G01 X14.1217 Y4.3115
G01 X14.2169 Y4.2876
G01 X14.2438 Y4.2822
G01 X14.3409 Y4.2678
G01 X14.3682 Y4.2652
G01 X14.4663 Y4.2603
G01 X14.4937 Y4.2603
G01 X14.5918 Y4.2652
G01 X14.6191 Y4.2678
G01 X14.7162 Y4.2822
G01 X14.7431 Y4.2876
G01 X14.8383 Y4.3115
G01 X14.8646 Y4.3194
G01 X14.9570 Y4.3525
G01 X14.9824 Y4.3630
G01 X15.0711 Y4.4050
G01 X15.0953 Y4.4179
G01 X15.1795 Y4.4684
G01 X15.2024 Y4.4836
G01 X15.2812 Y4.5421
G01 X15.3024 Y4.5595
G01 X15.3751 Y4.6254
G01 X15.3946 Y4.6449
G01 X15.4605 Y4.7176
G01 X15.4779 Y4.7388
G01 X15.5364 Y4.8176
G01 X15.5516 Y4.8405
G01 X15.6021 Y4.9247
G01 X15.6150 Y4.9489
G01 X15.6570 Y5.0376
G01 X15.6675 Y5.0630
G01 X15.7006 Y5.1554
G01 X15.7085 Y5.1817
G01 X15.7324 Y5.2769
G01 X15.7378 Y5.3038
G01 X15.7522 Y5.4009
G01 X15.7548 Y5.4282
G01 X15.7597 Y5.5263
G01 X15.7597 Y5.5537
G01 X15.7548 Y5.6518
G01 X15.7522 Y5.6791
G01 X15.7378 Y5.7762
G01 X15.7324 Y5.8031
G01 X15.7085 Y5.8983
G01 X15.7006 Y5.9246
G01 X15.6675 Y6.0170
G01 X15.6570 Y6.0424
G01 X15.6150 Y6.1311
G01 X15.6021 Y6.1553
G01 X15.5516 Y6.2395
G01 X15.5364 Y6.2624
G01 X15.4779 Y6.3412
G01 X15.4605 Y6.3624
G01 X15.3946 Y6.4351
G01 X15.3751 Y6.4546
G01 X15.3024 Y6.5205
G01 X15.2812 Y6.5379
G01 X15.2024 Y6.5964
G01 X15.1795 Y6.6116
G01 X15.0953 Y6.6621
G01 X15.0711 Y6.6750
G01 X14.9824 Y6.7170
G01 X14.9570 Y6.7275
G01 X14.8646 Y6.7606
G01 X14.8383 Y6.7685
G01 X14.7431 Y6.7924
G01 X14.7162 Y6.7978
G01 X14.6191 Y6.8122
G01 X14.5918 Y6.8148
G01 X14.4937 Y6.8197
G01 X14.4663 Y6.8197
G01 X14.3682 Y6.8148
G01 X14.3409 Y6.8122
G01 X14.2438 Y6.7978
G01 X14.2169 Y6.7924
G01 X14.1217 Y6.7685
G01 X14.0954 Y6.7606
G01 X14.0030 Y6.7275
G01 X13.9776 Y6.7170
G01 X13.8889 Y6.6750
G01 X13.8647 Y6.6621
G01 X13.7805 Y6.6116
G01 X13.7576 Y6.5964
G01 X13.6788 Y6.5379
G01 X13.6576 Y6.5205
G01 X13.5849 Y6.4546
G01 X13.5654 Y6.4351
G01 X13.4995 Y6.3624
G01 X13.4821 Y6.3412
G01 X13.4666 Y6.3203
G01 X9.7632 Y6.3203
G01 X9.2091 Y6.8743
G01 X9.2058 Y6.9422
G01 X9.2031 Y6.9695
G01 X9.1916 Y7.0472
G01 X9.1862 Y7.0741
G01 X9.1672 Y7.1503
G01 X9.1592 Y7.1766
G01 X9.1327 Y7.2505
G01 X9.1222 Y7.2759
G01 X9.0887 Y7.3468
G01 X9.0757 Y7.3711
G01 X9.0353 Y7.4384
G01 X9.0201 Y7.4613
G01 X8.9733 Y7.5243
G01 X8.9559 Y7.5456
G01 X8.9032 Y7.6037
G01 X8.8837 Y7.6232
G01 X8.8256 Y7.6759
G01 X8.8043 Y7.6933
G01 X8.7413 Y7.7401
G01 X8.7184 Y7.7553
G01 X8.6511 Y7.7957
G01 X8.6268 Y7.8087
G01 X8.5559 Y7.8422
G01 X8.5305 Y7.8527
G01 X8.4566 Y7.8792
G01 X8.4303 Y7.8872
G01 X8.3541 Y7.9062
G01 X8.3272 Y7.9116
G01 X8.2495 Y7.9231
G01 X8.2222 Y7.9258
G01 X8.1437 Y7.9297
G01 X8.1163 Y7.9297
G01 X8.0378 Y7.9258
G01 X8.0105 Y7.9231
G01 X7.9328 Y7.9116
G01 X7.9059 Y7.9062
G01 X7.8297 Y7.8872
G01 X7.8034 Y7.8792
G01 X7.7295 Y7.8527
G00 Z2.0000
G00 X7.6689 Y8.0222
G01 F60.00
G01 Z-0.1000
G01 F120.00
G01 X7.6272 Y8.0049
G01 X7.5562 Y7.9714
G01 X7.5164 Y7.9501
G01 X7.4491 Y7.9097
G01 X7.4115 Y7.8847
G01 X7.3485 Y7.8379
G01 X7.3136 Y7.8092
G01 X7.2554 Y7.7565
G01 X7.2235 Y7.7246
G01 X7.1708 Y7.6664
G01 X7.1421 Y7.6315
G01 X7.0953 Y7.5685
G01 X7.0703 Y7.5309
G01 X7.0299 Y7.4636
G01 X7.0086 Y7.4238
G01 X6.9751 Y7.3528
G01 X6.9578 Y7.3111
G01 X6.9313 Y7.2372
G01 X6.9182 Y7.1940
G01 X6.8992 Y7.1178
G01 X6.8904 Y7.0736
G01 X6.8788 Y6.9959
G01 X6.8744 Y6.9510
G01 X6.8706 Y6.8726
G01 X6.8706 Y6.8274
G01 X6.8744 Y6.7490
G01 X6.8788 Y6.7041
G01 X6.8904 Y6.6264
G01 X6.8992 Y6.5822
G01 X6.9182 Y6.5060
G01 X6.9313 Y6.4628
G01 X6.9578 Y6.3889
G01 X6.9751 Y6.3472
G01 X7.0086 Y6.2762
G01 X7.0299 Y6.2364
G01 X7.0703 Y6.1691
G01 X7.0953 Y6.1315
G01 X7.1421 Y6.0685
G01 X7.1708 Y6.0336
G01 X7.2235 Y5.9754
G01 X7.2554 Y5.9435
G01 X7.3136 Y5.8908
G01 X7.3485 Y5.8621
G01 X7.4115 Y5.8153
G01 X7.4491 Y5.7903
G01 X7.5164 Y5.7499
G01 X7.5562 Y5.7286
G01 X7.6272 Y5.6951
G01 X7.6689 Y5.6778
G01 X7.7428 Y5.6513
G01 X7.7860 Y5.6382
G01 X7.8622 Y5.6192
G01 X7.9064 Y5.6104
G01 X7.9841 Y5.5988
G01 X8.0274 Y5.5946
G01 X8.7610 Y4.8610
G01 X8.7774 Y4.8454
G01 X8.8137 Y4.8125
G01 X8.8486 Y4.7838
G01 X8.8881 Y4.7546
G01 X8.9256 Y4.7295
G01 X8.9677 Y4.7043
G01 X9.0075 Y4.6830
G01 X9.0519 Y4.6620
G01 X9.0936 Y4.6447
G01 X9.1398 Y4.6282
G01 X9.1830 Y4.6151
G01 X9.2306 Y4.6031
G01 X9.2749 Y4.5943
G01 X9.3235 Y4.5871
G01 X9.3684 Y4.5827
G01 X9.4174 Y4.5803
G01 X9.4400 Y4.5797
G01 X13.3815 Y4.5797
G01 X13.4321 Y4.5240
G01 X13.4640 Y4.4921
G01 X13.5367 Y4.4262
G01 X13.5716 Y4.3975
G01 X13.6504 Y4.3391
G01 X13.6879 Y4.3140
G01 X13.7721 Y4.2635
G01 X13.8119 Y4.2422
G01 X13.9006 Y4.2003
G01 X13.9423 Y4.1830
G01 X14.0347 Y4.1499
G01 X14.0779 Y4.1368
G01 X14.1731 Y4.1130
G01 X14.2174 Y4.1042
G01 X14.3145 Y4.0898
G01 X14.3594 Y4.0854
G01 X14.4574 Y4.0806
G01 X14.5026 Y4.0806
G01 X14.6006 Y4.0854
G01 X14.6455 Y4.0898
G01 X14.7426 Y4.1042
G01 X14.7869 Y4.1130
G01 X14.8821 Y4.1368
G01 X14.9253 Y4.1499
G01 X15.0177 Y4.1830
G01 X15.0594 Y4.2003
G01 X15.1481 Y4.2422
G01 X15.1879 Y4.2635
G01 X15.2721 Y4.3140
G01 X15.3096 Y4.3391
G01 X15.3884 Y4.3975
G01 X15.4233 Y4.4262
G01 X15.4960 Y4.4921
G01 X15.5279 Y4.5240
G01 X15.5938 Y4.5967
G01 X15.6225 Y4.6316
G01 X15.6809 Y4.7104
G01 X15.7060 Y4.7479
G01 X15.7565 Y4.8321
G01 X15.7778 Y4.8719
G01 X15.8197 Y4.9606
G01 X15.8370 Y5.0023
G01 X15.8701 Y5.0947
G01 X15.8832 Y5.1379
G01 X15.9070 Y5.2331
G01 X15.9158 Y5.2774
G01 X15.9302 Y5.3745
G01 X15.9346 Y5.4194
G01 X15.9394 Y5.5174
G01 X15.9394 Y5.5626
G01 X15.9346 Y5.6606
G01 X15.9302 Y5.7055
G01 X15.9158 Y5.8026
G01 X15.9070 Y5.8469
G01 X15.8832 Y5.9421
G01 X15.8701 Y5.9853
G01 X15.8370 Y6.0777
G01 X15.8197 Y6.1194
G01 X15.7778 Y6.2081
G01 X15.7565 Y6.2479
G01 X15.7060 Y6.3321
G01 X15.6809 Y6.3696
G01 X15.6225 Y6.4484
G01 X15.5938 Y6.4833
G01 X15.5279 Y6.5560
G01 X15.4960 Y6.5879
G01 X15.4233 Y6.6538
G01 X15.3884 Y6.6825
G01 X15.3096 Y6.7409
G01 X15.2721 Y6.7660
G01 X15.1879 Y6.8165
G01 X15.1481 Y6.8378
G01 X15.0594 Y6.8797
G01 X15.0177 Y6.8970
G01 X14.9253 Y6.9301
G01 X14.8821 Y6.9432
G01 X14.7869 Y6.9670
G01 X14.7426 Y6.9758
G01 X14.6455 Y6.9902
G01 X14.6006 Y6.9946
G01 X14.5026 Y6.9994
G01 X14.4574 Y6.9994
G01 X14.3594 Y6.9946
G01 X14.3145 Y6.9902
G01 X14.2174 Y6.9758
G01 X14.1731 Y6.9670
G01 X14.0779 Y6.9432
G01 X14.0347 Y6.9301
G01 X13.9423 Y6.8970
G01 X13.9006 Y6.8797
G01 X13.8119 Y6.8378
G01 X13.7721 Y6.8165
G01 X13.6879 Y6.7660
G01 X13.6504 Y6.7409
G01 X13.5716 Y6.6825
G01 X13.5367 Y6.6538
G01 X13.4640 Y6.5879
G01 X13.4321 Y6.5560
G01 X13.3815 Y6.5003
G01 X9.8377 Y6.5003
G01 X9.3854 Y6.9526
G01 X9.3812 Y6.9959
G01 X9.3696 Y7.0736
G01 X9.3608 Y7.1178
G01 X9.3418 Y7.1940
G01 X9.3287 Y7.2372
G01 X9.3022 Y7.3111
G01 X9.2849 Y7.3528
G01 X9.2514 Y7.4238
G01 X9.2301 Y7.4636
G01 X9.1897 Y7.5309
G01 X9.1647 Y7.5685
G01 X9.1179 Y7.6315
G01 X9.0892 Y7.6664
G01 X9.0365 Y7.7246
G01 X9.0046 Y7.7565
G01 X8.9464 Y7.8092
G01 X8.9115 Y7.8379
G01 X8.8485 Y7.8847
G01 X8.8109 Y7.9097
G01 X8.7436 Y7.9501
G01 X8.7038 Y7.9714
G01 X8.6328 Y8.0049
G01 X8.5911 Y8.0222
G01 X8.5172 Y8.0487
G01 X8.4740 Y8.0618
G01 X8.3978 Y8.0808
G01 X8.3512 Y8.0900
G01 X8.9300 Y8.0900
G01 X8.9751 Y8.0922
G01 X9.0197 Y8.0988
G01 X9.0635 Y8.1098
G01 X9.1060 Y8.1250
G01 X9.1468 Y8.1443
G01 X9.1856 Y8.1675
G01 X9.2218 Y8.1944
G01 X9.2553 Y8.2247
G01 X9.2856 Y8.2582
G01 X9.3125 Y8.2944
G01 X9.3357 Y8.3332
G01 X9.3550 Y8.3740
G01 X9.3702 Y8.4165
G01 X9.3812 Y8.4603
G01 X9.3878 Y8.5049
G01 X9.3900 Y8.5500
G01 X9.3900 Y10.1500
G01 X9.3878 Y10.1951
G01 X9.3812 Y10.2397
G01 X9.3702 Y10.2835
G01 X9.3550 Y10.3260
G01 X9.3357 Y10.3668
G01 X9.3125 Y10.4056
G01 X9.2856 Y10.4418
G01 X9.2553 Y10.4753
G01 X9.2218 Y10.5056
G01 X9.1856 Y10.5325
G01 X9.1468 Y10.5557
G01 X9.1060 Y10.5750
G01 X9.0635 Y10.5902
G01 X9.0197 Y10.6012
G01 X8.9751 Y10.6078
G01 X8.9300 Y10.6100
G01 X8.4553 Y10.6100
G01 X8.4553 Y11.7426
G01 X8.4775 Y11.7482
G01 X8.5207 Y11.7613
G01 X8.7979 Y11.8605
G01 X8.8396 Y11.8778
G01 X9.1057 Y12.0036
G01 X9.1456 Y12.0249
G01 X9.3981 Y12.1763
G01 X9.4356 Y12.2013
G01 X9.6720 Y12.3767
G01 X9.7069 Y12.4053
G01 X9.9251 Y12.6030
G01 X9.9570 Y12.6349
G01 X10.1547 Y12.8531
G01 X10.1833 Y12.8880
G01 X10.3587 Y13.1244
G01 X10.3837 Y13.1619
G01 X10.5351 Y13.4144
G01 X10.5564 Y13.4543
G01 X10.6822 Y13.7204
G01 X10.6995 Y13.7621
G01 X10.7987 Y14.0393
G01 X10.8118 Y14.0825
G01 X10.8833 Y14.3680
G01 X10.8921 Y14.4123
G01 X10.9353 Y14.7035
G01 X10.9397 Y14.7484
G01 X10.9542 Y15.0424
G01 X10.9542 Y15.0876
G01 X10.9397 Y15.3816
G01 X10.9353 Y15.4265
G01 X10.8921 Y15.7177
G01 X10.8833 Y15.7620
G01 X10.8118 Y16.0475
G01 X10.7987 Y16.0907
G01 X10.6995 Y16.3679
G01 X10.6822 Y16.4096
G01 X10.5564 Y16.6757
G01 X10.5351 Y16.7156
G01 X10.3837 Y16.9681
G01 X10.3587 Y17.0056
G01 X10.1833 Y17.2420
G01 X10.1547 Y17.2769
G01 X9.9570 Y17.4951
G01 X9.9251 Y17.5270
G01 X9.7069 Y17.7247
G01 X9.6720 Y17.7533
G01 X9.4356 Y17.9287
G01 X9.3981 Y17.9537
G01 X9.1456 Y18.1051
G01 X9.1057 Y18.1264
G01 X8.8396 Y18.2522
G01 X8.7979 Y18.2695
G01 X8.5207 Y18.3687
G01 X8.4775 Y18.3818
G01 X8.1920 Y18.4533
G01 X8.1477 Y18.4621
G01 X7.8565 Y18.5053
G01 X7.8116 Y18.5097
G01 X7.5176 Y18.5242
G01 X7.4724 Y18.5242
G01 X7.1784 Y18.5097
G01 X7.1335 Y18.5053
G01 X6.8423 Y18.4621
G01 X6.7980 Y18.4533
G01 X6.5125 Y18.3818
G01 X6.4693 Y18.3687
G01 X6.1921 Y18.2695
G01 X6.1504 Y18.2522
G01 X5.8843 Y18.1264
G01 X5.8444 Y18.1051
G01 X5.5919 Y17.9537
G01 X5.5544 Y17.9287
G01 X5.3180 Y17.7533
G01 X5.2831 Y17.7247
G01 X5.0649 Y17.5270
G01 X5.0330 Y17.4951
G01 X4.8353 Y17.2769
G01 X4.8067 Y17.2420
G01 X4.6313 Y17.0056
G01 X4.6063 Y16.9681
G01 X4.4549 Y16.7156
G01 X4.4336 Y16.6757
G01 X4.3078 Y16.4096
G01 X4.2905 Y16.3679
G01 X4.1913 Y16.0907
G01 X4.1782 Y16.0475
G01 X4.1067 Y15.7620
G01 X4.0979 Y15.7177
G01 X4.0547 Y15.4265
G01 X4.0503 Y15.3816
G01 X4.0358 Y15.0876
G01 X4.0358 Y15.0424
G01 X4.0503 Y14.7484
G01 X4.0547 Y14.7035
G01 X4.0979 Y14.4123
G01 X4.1067 Y14.3680
G01 X4.1782 Y14.0825
G01 X4.1913 Y14.0393
G01 X4.2905 Y13.7621
G01 X4.3078 Y13.7204
G01 X4.4336 Y13.4543
G01 X4.4549 Y13.4144
G01 X4.6063 Y13.1619
G01 X4.6313 Y13.1244
G01 X4.8067 Y12.8880
G01 X4.8353 Y12.8531
G01 X5.0330 Y12.6349
G01 X5.0649 Y12.6030
G01 X5.2831 Y12.4053
G01 X5.3180 Y12.3767
G01 X5.5544 Y12.2013
G01 X5.5919 Y12.1763
G01 X5.8444 Y12.0249
G01 X5.8843 Y12.0036
G01 X6.1504 Y11.8778
G01 X6.1921 Y11.8605
G01 X6.4693 Y11.7613
G01 X6.5125 Y11.7482
G01 X6.5347 Y11.7426
G01 X6.5347 Y9.9850
G01 X6.5353 Y9.9624
G01 X6.5377 Y9.9134
G01 X6.5421 Y9.8685
G01 X6.5493 Y9.8199
G01 X6.5581 Y9.7756
G01 X6.5701 Y9.7280
G01 X6.5832 Y9.6848
G01 X6.5997 Y9.6386
G01 X6.6170 Y9.5969
G01 X6.6380 Y9.5525
G01 X6.6593 Y9.5127
G01 X6.6845 Y9.4706
G01 X6.7096 Y9.4331
G01 X6.7388 Y9.3936
G01 X6.7675 Y9.3587
G01 X6.8004 Y9.3224
G01 X6.8160 Y9.3060
G01 X6.8700 Y9.2520
G01 X6.8700 Y8.5500
G01 X6.8722 Y8.5049
G01 X6.8788 Y8.4603
G01 X6.8898 Y8.4165
G01 X6.9050 Y8.3740
G01 X6.9243 Y8.3332
G01 X6.9475 Y8.2944
G01 X6.9744 Y8.2582
G01 X7.0047 Y8.2247
G01 X7.0382 Y8.1944
G01 X7.0744 Y8.1675
G01 X7.1132 Y8.1443
G01 X7.1540 Y8.1250
G01 X7.1965 Y8.1098
G01 X7.2403 Y8.0988
G01 X7.2849 Y8.0922
G01 X7.3300 Y8.0900
G01 X7.9088 Y8.0900
G01 X7.8622 Y8.0808
G01 X7.7860 Y8.0618
G01 X7.7428 Y8.0487
G01 X7.6689 Y8.0222
G00 Z2.0000
G00 X9.0822 Y7.9291
G01 F60.00
G01 Z-0.1000
G01 F120.00
G01 X9.1158 Y7.9376
G01 X9.1749 Y7.9587
G01 X9.2317 Y7.9856
G01 X9.2856 Y8.0179
G01 X9.3360 Y8.0553
G01 X9.3825 Y8.0975
G01 X9.4247 Y8.1440
G01 X9.4621 Y8.1944
G01 X9.4944 Y8.2483
G01 X9.5213 Y8.3051
G01 X9.5424 Y8.3642
G01 X9.5577 Y8.4251
G01 X9.5669 Y8.4873
G01 X9.5700 Y8.5500
G01 X9.5700 Y10.1500
G01 X9.5669 Y10.2127
G01 X9.5577 Y10.2749
G01 X9.5424 Y10.3358
G01 X9.5213 Y10.3949
G01 X9.4944 Y10.4517
G01 X9.4621 Y10.5056
G01 X9.4247 Y10.5560
G01 X9.3825 Y10.6025
G01 X9.3360 Y10.6447
G01 X9.2856 Y10.6821
G01 X9.2317 Y10.7144
G01 X9.1749 Y10.7413
G01 X9.1158 Y10.7624
G01 X9.0549 Y10.7777
G01 X8.9927 Y10.7869
G01 X8.9300 Y10.7900
G01 X8.6353 Y10.7900
G01 X8.6353 Y11.6111
G01 X8.8586 Y11.6910
G01 X8.9166 Y11.7150
G01 X9.1827 Y11.8409
G01 X9.2381 Y11.8705
G01 X9.4906 Y12.0219
G01 X9.5428 Y12.0568
G01 X9.7793 Y12.2321
G01 X9.8278 Y12.2720
G01 X10.0459 Y12.4697
G01 X10.0903 Y12.5141
G01 X10.2880 Y12.7322
G01 X10.3279 Y12.7807
G01 X10.5032 Y13.0172
G01 X10.5381 Y13.0694
G01 X10.6895 Y13.3219
G01 X10.7191 Y13.3773
G01 X10.8450 Y13.6434
G01 X10.8690 Y13.7014
G01 X10.9682 Y13.9786
G01 X10.9864 Y14.0387
G01 X11.0579 Y14.3243
G01 X11.0702 Y14.3859
G01 X11.1134 Y14.6771
G01 X11.1195 Y14.7396
G01 X11.1340 Y15.0336
G01 X11.1340 Y15.0964
G01 X11.1195 Y15.3904
G01 X11.1134 Y15.4529
G01 X11.0702 Y15.7441
G01 X11.0579 Y15.8057
G01 X10.9864 Y16.0913
G01 X10.9682 Y16.1514
G01 X10.8690 Y16.4286
G01 X10.8450 Y16.4866
G01 X10.7191 Y16.7527
G01 X10.6895 Y16.8081
G01 X10.5381 Y17.0606
G01 X10.5032 Y17.1128
G01 X10.3279 Y17.3493
G01 X10.2880 Y17.3978
G01 X10.0903 Y17.6159
G01 X10.0459 Y17.6603
G01 X9.8278 Y17.8580
G01 X9.7793 Y17.8979
G01 X9.5428 Y18.0732
G01 X9.4906 Y18.1081
G01 X9.2381 Y18.2595
G01 X9.1827 Y18.2891
G01 X8.9166 Y18.4150
G01 X8.8586 Y18.4390
G01 X8.5814 Y18.5382
G01 X8.5213 Y18.5564
G01 X8.2357 Y18.6279
G01 X8.1741 Y18.6402
G01 X7.8829 Y18.6834
G01 X7.8204 Y18.6895
G01 X7.5264 Y18.7040
G01 X7.4636 Y18.7040
G01 X7.1696 Y18.6895
G01 X7.1071 Y18.6834
G01 X6.8159 Y18.6402
G01 X6.7543 Y18.6279
G01 X6.4687 Y18.5564
G01 X6.4086 Y18.5382
G01 X6.1314 Y18.4390
G01 X6.0734 Y18.4150
G01 X5.8073 Y18.2891
G01 X5.7519 Y18.2595
G01 X5.4994 Y18.1081
G01 X5.4472 Y18.0732
G01 X5.2107 Y17.8979
G01 X5.1622 Y17.8580
G01 X4.9441 Y17.6603
G01 X4.8997 Y17.6159
G01 X4.7020 Y17.3978
G01 X4.6621 Y17.3493
G01 X4.4868 Y17.1128
G01 X4.4519 Y17.0606
G01 X4.3005 Y16.8081
G01 X4.2709 Y16.7527
G01 X4.1450 Y16.4866
G01 X4.1210 Y16.4286
G01 X4.0218 Y16.1514
G01 X4.0036 Y16.0913
G01 X3.9321 Y15.8057
G01 X3.9198 Y15.7441
G01 X3.8766 Y15.4529
G01 X3.8705 Y15.3904
G01 X3.8560 Y15.0964
G01 X3.8560 Y15.0336
G01 X3.8705 Y14.7396
G01 X3.8766 Y14.6771
G01 X3.9198 Y14.3859
G01 X3.9321 Y14.3243
G01 X4.0036 Y14.0387
G01 X4.0218 Y13.9786
G01 X4.1210 Y13.7014
G01 X4.1450 Y13.6434
G01 X4.2709 Y13.3773
G01 X4.3005 Y13.3219
G01 X4.4519 Y13.0694
G01 X4.4868 Y13.0172
G01 X4.6621 Y12.7807
G01 X4.7020 Y12.7322
G01 X4.8997 Y12.5141
G01 X4.9441 Y12.4697
G01 X5.1622 Y12.2720
G01 X5.2107 Y12.2321
G01 X5.4472 Y12.0568
G01 X5.4994 Y12.0219
G01 X5.7519 Y11.8705
G01 X5.8073 Y11.8409
G01 X6.0734 Y11.7150
G01 X6.1314 Y11.6910
G01 X6.3547 Y11.6111
G01 X6.3547 Y9.9850
G01 X6.3555 Y9.9536
G01 X6.3579 Y9.9046
G01 X6.3641 Y9.8421
G01 X6.3713 Y9.7935
G01 X6.3835 Y9.7319
G01 X6.3955 Y9.6843
G01 X6.4137 Y9.6242
G01 X6.4302 Y9.5780
G01 X6.4543 Y9.5199
G01 X6.4753 Y9.4755
G01 X6.5049 Y9.4202
G01 X6.5301 Y9.3781
G01 X6.5650 Y9.3258
G01 X6.5942 Y9.2864
G01 X6.6341 Y9.2378
G01 X6.6671 Y9.2015
G01 X6.6900 Y9.1774
G01 X6.6900 Y8.5500
G01 X6.6931 Y8.4873
G01 X6.7023 Y8.4251
G01 X6.7176 Y8.3642
G01 X6.7387 Y8.3051
G01 X6.7656 Y8.2483
G01 X6.7979 Y8.1944
G01 X6.8353 Y8.1440
G01 X6.8775 Y8.0975
G01 X6.9240 Y8.0553
G01 X6.9744 Y8.0179
G01 X7.0283 Y7.9856
G01 X7.0851 Y7.9587
G01 X7.1442 Y7.9376
G01 X7.1778 Y7.9291
G01 X7.1345 Y7.8899
G01 X7.0901 Y7.8455
G01 X7.0374 Y7.7873
G01 X6.9975 Y7.7388
G01 X6.9508 Y7.6757
G01 X6.9159 Y7.6235
G01 X6.8755 Y7.5561
G01 X6.8459 Y7.5008
G01 X6.8123 Y7.4298
G01 X6.7883 Y7.3718
G01 X6.7619 Y7.2978
G01 X6.7436 Y7.2377
G01 X6.7246 Y7.1616
G01 X6.7123 Y7.1000
G01 X6.7008 Y7.0223
G01 X6.6946 Y6.9598
G01 X6.6908 Y6.8814
G01 X6.6908 Y6.8186
G01 X6.6946 Y6.7402
G01 X6.7008 Y6.6777
G01 X6.7123 Y6.6000
G01 X6.7246 Y6.5384
G01 X6.7436 Y6.4623
G01 X6.7619 Y6.4022
G01 X6.7883 Y6.3282
G01 X6.8123 Y6.2702
G01 X6.8459 Y6.1992
G01 X6.8755 Y6.1439
G01 X6.9159 Y6.0765
G01 X6.9508 Y6.0243
G01 X6.9975 Y5.9612
G01 X7.0374 Y5.9127
G01 X7.0901 Y5.8545
G01 X7.1345 Y5.8101
G01 X7.1927 Y5.7574
G01 X7.2412 Y5.7175
G01 X7.3043 Y5.6708
G01 X7.3565 Y5.6359
G01 X7.4239 Y5.5955
G01 X7.4792 Y5.5659
G01 X7.5502 Y5.5323
G01 X7.6082 Y5.5083
G01 X7.6822 Y5.4819
G01 X7.7423 Y5.4636
G01 X7.8184 Y5.4446
G01 X7.8800 Y5.4323
G01 X7.9447 Y5.4227
G01 X8.6337 Y4.7337
G01 X8.6565 Y4.7121
G01 X8.6928 Y4.6791
G01 X8.7414 Y4.6392
G01 X8.7808 Y4.6100
G01 X8.8331 Y4.5751
G01 X8.8752 Y4.5499
G01 X8.9305 Y4.5203
G01 X8.9749 Y4.4993
G01 X9.0330 Y4.4752
G01 X9.0792 Y4.4587
G01 X9.1393 Y4.4405
G01 X9.1869 Y4.4285
G01 X9.2485 Y4.4163
G01 X9.2971 Y4.4091
G01 X9.3596 Y4.4029
G01 X9.4086 Y4.4005
G01 X9.4400 Y4.3997
G01 X13.3020 Y4.3997
G01 X13.3431 Y4.3587
G01 X13.4158 Y4.2928
G01 X13.4644 Y4.2529
G01 X13.5432 Y4.1945
G01 X13.5954 Y4.1596
G01 X13.6796 Y4.1091
G01 X13.7350 Y4.0795
G01 X13.8237 Y4.0376
G01 X13.8817 Y4.0135
G01 X13.9741 Y3.9805
G01 X14.0342 Y3.9622
G01 X14.1294 Y3.9384
G01 X14.1910 Y3.9261
G01 X14.2881 Y3.9117
G01 X14.3506 Y3.9056
G01 X14.4486 Y3.9008
G01 X14.5114 Y3.9008
G01 X14.6094 Y3.9056
G01 X14.6719 Y3.9117
G01 X14.7690 Y3.9261
G01 X14.8306 Y3.9384
G01 X14.9258 Y3.9622
G01 X14.9859 Y3.9805
G01 X15.0783 Y4.0135
G01 X15.1363 Y4.0376
G01 X15.2250 Y4.0795
G01 X15.2804 Y4.1091
G01 X15.3646 Y4.1596
G01 X15.4168 Y4.1945
G01 X15.4956 Y4.2529
G01 X15.5442 Y4.2928
G01 X15.6169 Y4.3587
G01 X15.6613 Y4.4031
G01 X15.7272 Y4.4758
G01 X15.7671 Y4.5244
G01 X15.8255 Y4.6032
G01 X15.8604 Y4.6554
G01 X15.9109 Y4.7396
G01 X15.9405 Y4.7950
G01 X15.9824 Y4.8837
G01 X16.0065 Y4.9417
G01 X16.0395 Y5.0341
G01 X16.0578 Y5.0942
G01 X16.0816 Y5.1894
G01 X16.0939 Y5.2510
G01 X16.1083 Y5.3481
G01 X16.1144 Y5.4106
G01 X16.1192 Y5.5086
G01 X16.1192 Y5.5714
G01 X16.1144 Y5.6694
G01 X16.1083 Y5.7319
G01 X16.0939 Y5.8290
G01 X16.0816 Y5.8906
G01 X16.0578 Y5.9858
G01 X16.0395 Y6.0459
G01 X16.0065 Y6.1383
G01 X15.9824 Y6.1963
G01 X15.9405 Y6.2850
G01 X15.9109 Y6.3404
G01 X15.8604 Y6.4246
G01 X15.8255 Y6.4768
G01 X15.7671 Y6.5556
G01 X15.7272 Y6.6042
G01 X15.6613 Y6.6769
G01 X15.6169 Y6.7213
G01 X15.5442 Y6.7872
G01 X15.4956 Y6.8271
G01 X15.4168 Y6.8855
G01 X15.3646 Y6.9204
G01 X15.2804 Y6.9709
G01 X15.2250 Y7.0005
G01 X15.1363 Y7.0424
G01 X15.0783 Y7.0665
G01 X14.9859 Y7.0995
G01 X14.9258 Y7.1178
G01 X14.8306 Y7.1416
G01 X14.7690 Y7.1539
G01 X14.6719 Y7.1683
G01 X14.6094 Y7.1744
G01 X14.5114 Y7.1792
G01 X14.4486 Y7.1792
G01 X14.3506 Y7.1744
G01 X14.2881 Y7.1683
G01 X14.1910 Y7.1539
G01 X14.1294 Y7.1416
G01 X14.0342 Y7.1178
G01 X13.9741 Y7.0995
G01 X13.8817 Y7.0665
G01 X13.8237 Y7.0424
G01 X13.7350 Y7.0005
G01 X13.6796 Y6.9709
G01 X13.5954 Y6.9204
G01 X13.5432 Y6.8855
G01 X13.4644 Y6.8271
G01 X13.4158 Y6.7872
G01 X13.3431 Y6.7213
G01 X13.3020 Y6.6803
G01 X9.9123 Y6.6803
G01 X9.5573 Y7.0353
G01 X9.5477 Y7.1000
G01 X9.5354 Y7.1616
G01 X9.5164 Y7.2377
G01 X9.4981 Y7.2978
G01 X9.4717 Y7.3718
G01 X9.4477 Y7.4298
G01 X9.4141 Y7.5008
G01 X9.3845 Y7.5561
G01 X9.3441 Y7.6235
G01 X9.3092 Y7.6757
G01 X9.2625 Y7.7388
G01 X9.2226 Y7.7873
G01 X9.1699 Y7.8455
G01 X9.1255 Y7.8899
G01 X9.0822 Y7.9291
G00 Z2.0000
G00 X18.4480 Y6.7275
G01 F60.00
G01 Z-0.1000
G01 F120.00
G01 X18.4226 Y6.7170
G01 X18.3339 Y6.6750
G01 X18.3097 Y6.6621
G01 X18.2255 Y6.6116
G01 X18.2026 Y6.5964
G01 X18.1238 Y6.5379
G01 X18.1026 Y6.5205
G01 X18.0299 Y6.4546
G01 X18.0104 Y6.4351
G01 X17.9445 Y6.3624
G01 X17.9271 Y6.3412
G01 X17.8686 Y6.2624
G01 X17.8534 Y6.2395
G01 X17.8029 Y6.1553
G01 X17.7900 Y6.1311
G01 X17.7480 Y6.0424
G01 X17.7375 Y6.0170
G01 X17.7044 Y5.9246
G01 X17.6965 Y5.8983
G01 X17.6726 Y5.8031
G01 X17.6672 Y5.7762
G01 X17.6528 Y5.6791
G01 X17.6502 Y5.6518
G01 X17.6453 Y5.5537
G01 X17.6453 Y5.5263
G01 X17.6502 Y5.4282
G01 X17.6528 Y5.4009
G01 X17.6672 Y5.3038
G01 X17.6726 Y5.2769
G01 X17.6965 Y5.1817
G01 X17.7044 Y5.1554
G01 X17.7375 Y5.0630
G01 X17.7480 Y5.0376
G01 X17.7900 Y4.9489
G01 X17.8029 Y4.9247
G01 X17.8534 Y4.8405
G01 X17.8686 Y4.8176
G01 X17.9271 Y4.7388
G01 X17.9445 Y4.7176
G01 X18.0104 Y4.6449
G01 X18.0299 Y4.6254
G01 X18.1026 Y4.5595
G01 X18.1238 Y4.5421
G01 X18.2026 Y4.4836
G01 X18.2255 Y4.4684
G01 X18.3097 Y4.4179
G01 X18.3339 Y4.4050
G01 X18.4226 Y4.3630
G01 X18.4480 Y4.3525
G01 X18.5404 Y4.3194
G01 X18.5667 Y4.3115
G01 X18.6619 Y4.2876
G01 X18.6888 Y4.2822
G01 X18.7859 Y4.2678
G01 X18.8132 Y4.2652
G01 X18.9113 Y4.2603
G01 X18.9387 Y4.2603
G01 X19.0368 Y4.2652
G01 X19.0641 Y4.2678
G01 X19.1612 Y4.2822
G01 X19.1881 Y4.2876
G01 X19.2833 Y4.3115
G01 X19.3096 Y4.3194
G01 X19.4020 Y4.3525
G01 X19.4274 Y4.3630
G01 X19.5161 Y4.4050
G01 X19.5403 Y4.4179
G01 X19.6245 Y4.4684
G01 X19.6474 Y4.4836
G01 X19.7262 Y4.5421
G01 X19.7474 Y4.5595
G01 X19.8201 Y4.6254
G01 X19.8396 Y4.6449
G01 X19.9055 Y4.7176
G01 X19.9229 Y4.7388
G01 X19.9384 Y4.7597
G01 X21.7216 Y4.7597
G01 X21.7371 Y4.7388
G01 X21.7545 Y4.7176
G01 X21.8204 Y4.6449
G01 X21.8399 Y4.6254
G01 X21.9126 Y4.5595
G01 X21.9338 Y4.5421
G01 X22.0126 Y4.4836
G01 X22.0355 Y4.4684
G01 X22.1197 Y4.4179
G01 X22.1439 Y4.4050
G01 X22.2326 Y4.3630
G01 X22.2580 Y4.3525
G01 X22.3504 Y4.3194
G01 X22.3767 Y4.3115
G01 X22.4719 Y4.2876
G01 X22.4988 Y4.2822
G01 X22.5959 Y4.2678
G01 X22.6232 Y4.2652
G01 X22.7213 Y4.2603
G01 X22.7487 Y4.2603
G01 X22.8468 Y4.2652
G01 X22.8741 Y4.2678
G01 X22.9712 Y4.2822
G01 X22.9981 Y4.2876
G01 X23.0933 Y4.3115
G01 X23.1196 Y4.3194
G01 X23.2120 Y4.3525
G01 X23.2374 Y4.3630
G01 X23.3261 Y4.4050
G01 X23.3503 Y4.4179
G01 X23.4345 Y4.4684
G01 X23.4574 Y4.4836
G01 X23.5362 Y4.5421
G01 X23.5574 Y4.5595
G01 X23.6301 Y4.6254
G01 X23.6496 Y4.6449
G01 X23.7155 Y4.7176
G01 X23.7329 Y4.7388
G01 X23.7484 Y4.7597
G01 X26.1666 Y4.7597
G01 X26.1821 Y4.7388
G01 X26.1995 Y4.7176
G01 X26.2654 Y4.6449
G01 X26.2849 Y4.6254
G01 X26.3576 Y4.5595
G01 X26.3788 Y4.5421
G01 X26.4576 Y4.4836
G01 X26.4805 Y4.4684
G01 X26.5647 Y4.4179
G01 X26.5889 Y4.4050
G01 X26.6776 Y4.3630
G01 X26.7030 Y4.3525
G01 X26.7954 Y4.3194
G01 X26.8217 Y4.3115
G01 X26.9169 Y4.2876
G01 X26.9438 Y4.2822
G01 X27.0409 Y4.2678
G01 X27.0682 Y4.2652
G01 X27.1663 Y4.2603
G01 X27.1937 Y4.2603
G01 X27.2918 Y4.2652
G01 X27.3191 Y4.2678
G01 X27.4162 Y4.2822
G01 X27.4431 Y4.2876
G01 X27.5383 Y4.3115
G01 X27.5646 Y4.3194
G01 X27.6570 Y4.3525
G01 X27.6824 Y4.3630
G01 X27.7711 Y4.4050
G01 X27.7953 Y4.4179
G01 X27.8795 Y4.4684
G01 X27.9024 Y4.4836
G01 X27.9812 Y4.5421
G01 X28.0024 Y4.5595
G01 X28.0751 Y4.6254
G01 X28.0946 Y4.6449
G01 X28.1605 Y4.7176
G01 X28.1779 Y4.7388
G01 X28.2364 Y4.8176
G01 X28.2516 Y4.8405
G01 X28.3021 Y4.9247
G01 X28.3150 Y4.9489
G01 X28.3570 Y5.0376
G01 X28.3675 Y5.0630
G01 X28.4006 Y5.1554
G01 X28.4085 Y5.1817
G01 X28.4324 Y5.2769
G01 X28.4378 Y5.3038
G01 X28.4522 Y5.4009
G01 X28.4548 Y5.4282
G01 X28.4597 Y5.5263
G01 X28.4597 Y5.5537
G01 X28.4548 Y5.6518
G01 X28.4522 Y5.6791
G01 X28.4483 Y5.7049
G01 X30.4964 Y7.7530
G01 X30.5664 Y7.6758
G01 X30.5858 Y7.6564
G01 X30.8039 Y7.4587
G01 X30.8252 Y7.4413
G01 X31.0616 Y7.2659
G01 X31.0845 Y7.2506
G01 X31.3370 Y7.0993
G01 X31.3612 Y7.0863
G01 X31.6273 Y6.9605
G01 X31.6527 Y6.9500
G01 X31.9299 Y6.8508
G01 X31.9562 Y6.8428
G01 X32.2417 Y6.7713
G01 X32.2687 Y6.7659
G01 X32.5599 Y6.7227
G01 X32.5872 Y6.7200
G01 X32.8813 Y6.7056
G01 X32.9087 Y6.7056
G01 X33.2028 Y6.7200
G01 X33.2301 Y6.7227
G01 X33.5213 Y6.7659
G01 X33.5483 Y6.7713
G01 X33.8338 Y6.8428
G01 X33.8601 Y6.8508
G01 X34.1373 Y6.9500
G01 X34.1627 Y6.9605
G01 X34.4288 Y7.0863
G01 X34.4530 Y7.0993
G01 X34.7055 Y7.2506
G01 X34.7284 Y7.2659
G01 X34.9648 Y7.4413
G01 X34.9861 Y7.4587
G01 X35.2042 Y7.6564
G01 X35.2236 Y7.6758
G01 X35.4213 Y7.8939
G01 X35.4387 Y7.9152
G01 X35.6141 Y8.1516
G01 X35.6294 Y8.1745
G01 X35.7807 Y8.4270
G01 X35.7937 Y8.4512
G01 X35.9195 Y8.7173
G01 X35.9300 Y8.7427
G01 X36.0292 Y9.0199
G01 X36.0372 Y9.0462
G01 X36.1087 Y9.3317
G01 X36.1141 Y9.3587
G01 X36.1573 Y9.6499
G01 X36.1600 Y9.6772
G01 X36.1744 Y9.9713
G01 X36.1744 Y9.9987
G01 X36.1600 Y10.2928
G01 X36.1573 Y10.3201
G01 X36.1141 Y10.6113
G01 X36.1087 Y10.6383
G01 X36.0372 Y10.9238
G01 X36.0292 Y10.9501
G01 X35.9300 Y11.2273
G01 X35.9195 Y11.2527
G01 X35.7937 Y11.5188
G01 X35.7807 Y11.5430
G01 X35.6294 Y11.7955
G01 X35.6141 Y11.8184
G01 X35.4387 Y12.0548
G01 X35.4213 Y12.0761
G01 X35.2236 Y12.2942
G01 X35.2042 Y12.3136
G01 X34.9861 Y12.5113
G01 X34.9648 Y12.5287
G01 X34.7284 Y12.7041
G01 X34.7055 Y12.7194
G01 X34.4530 Y12.8707
G01 X34.4288 Y12.8837
G01 X34.3103 Y12.9397
G01 X34.3103 Y17.9168
G01 X43.3782 Y26.9847
G01 X43.9761 Y26.9847
G01 X44.0161 Y26.9406
G01 X44.0356 Y26.9211
G01 X44.1010 Y26.8618
G01 X44.1223 Y26.8444
G01 X44.1932 Y26.7918
G01 X44.2160 Y26.7765
G01 X44.2918 Y26.7311
G01 X44.3160 Y26.7182
G01 X44.3959 Y26.6804
G01 X44.4213 Y26.6699
G01 X44.5044 Y26.6401
G01 X44.5307 Y26.6321
G01 X44.6164 Y26.6107
G01 X44.6433 Y26.6053
G01 X44.7307 Y26.5924
G01 X44.7580 Y26.5897
G01 X44.8463 Y26.5853
G01 X44.8600 Y26.5850
G01 X45.0600 Y26.5850
G01 X45.0737 Y26.5853
G01 X45.1620 Y26.5897
G01 X45.1893 Y26.5924
G01 X45.2767 Y26.6053
G01 X45.3036 Y26.6107
G01 X45.3893 Y26.6321
G01 X45.4156 Y26.6401
G01 X45.4987 Y26.6699
G01 X45.5241 Y26.6804
G01 X45.6040 Y26.7182
G01 X45.6282 Y26.7311
G01 X45.7040 Y26.7765
G01 X45.7268 Y26.7918
G01 X45.7977 Y26.8444
G01 X45.8190 Y26.8618
G01 X45.8844 Y26.9211
G01 X45.9039 Y26.9406
G01 X45.9632 Y27.0060
G01 X45.9806 Y27.0273
G01 X46.0332 Y27.0982
G01 X46.0485 Y27.1210
G01 X46.0939 Y27.1968
G01 X46.1068 Y27.2210
G01 X46.1446 Y27.3009
G01 X46.1551 Y27.3263
G01 X46.1849 Y27.4094
G01 X46.1929 Y27.4357
G01 X46.2143 Y27.5214
G01 X46.2197 Y27.5483
G01 X46.2326 Y27.6357
G01 X46.2353 Y27.6630
G01 X46.2397 Y27.7513
G01 X46.2397 Y27.7787
G01 X46.2353 Y27.8670
G01 X46.2326 Y27.8943
G01 X46.2197 Y27.9817
G01 X46.2143 Y28.0086
G01 X46.1929 Y28.0943
G01 X46.1849 Y28.1206
G01 X46.1551 Y28.2037
G01 X46.1446 Y28.2291
G01 X46.1068 Y28.3090
G01 X46.0939 Y28.3332
G01 X46.0485 Y28.4090
G01 X46.0332 Y28.4318
G01 X45.9806 Y28.5027
G01 X45.9632 Y28.5240
G01 X45.9039 Y28.5894
G01 X45.8844 Y28.6089
G01 X45.8190 Y28.6682
G01 X45.7977 Y28.6856
G01 X45.7268 Y28.7382
G01 X45.7040 Y28.7535
G01 X45.6282 Y28.7989
G01 X45.6040 Y28.8118
G01 X45.5241 Y28.8496
G01 X45.4987 Y28.8601
G01 X45.4156 Y28.8899
G01 X45.3893 Y28.8979
G01 X45.3036 Y28.9193
G01 X45.2767 Y28.9247
G01 X45.1893 Y28.9376
G01 X45.1620 Y28.9403
G01 X45.0737 Y28.9447
G01 X45.0600 Y28.9450
G01 X44.8600 Y28.9450
G01 X44.8463 Y28.9447
G01 X44.7580 Y28.9403
G01 X44.7307 Y28.9376
G01 X44.6433 Y28.9247
G01 X44.6164 Y28.9193
G01 X44.5307 Y28.8979
G01 X44.5044 Y28.8899
G01 X44.4213 Y28.8601
G01 X44.3959 Y28.8496
G01 X44.3160 Y28.8118
G01 X44.2918 Y28.7989
G01 X44.2160 Y28.7535
G01 X44.1932 Y28.7382
G01 X44.1223 Y28.6856
G01 X44.1010 Y28.6682
G01 X44.0356 Y28.6089
G01 X44.0161 Y28.5894
G01 X43.9761 Y28.5453
G01 X43.0550 Y28.5453
G01 X43.0413 Y28.5449
G01 X42.9922 Y28.5425
G01 X42.9649 Y28.5398
G01 X42.9163 Y28.5326
G01 X42.8894 Y28.5272
G01 X42.8418 Y28.5153
G01 X42.8155 Y28.5073
G01 X42.7692 Y28.4908
G01 X42.7438 Y28.4803
G01 X42.6995 Y28.4593
G01 X42.6752 Y28.4463
G01 X42.6331 Y28.4211
G01 X42.6103 Y28.4058
G01 X42.5708 Y28.3766
G01 X42.5496 Y28.3592
G01 X42.5132 Y28.3262
G01 X42.5033 Y28.3167
G01 X32.9783 Y18.7917
G01 X32.9688 Y18.7818
G01 X32.9358 Y18.7454
G01 X32.9184 Y18.7242
G01 X32.8892 Y18.6847
G01 X32.8739 Y18.6619
G01 X32.8487 Y18.6198
G01 X32.8357 Y18.5955
G01 X32.8147 Y18.5512
G01 X32.8042 Y18.5258
G01 X32.7877 Y18.4795
G01 X32.7797 Y18.4532
G01 X32.7678 Y18.4056
G01 X32.7624 Y18.3787
G01 X32.7552 Y18.3301
G01 X32.7525 Y18.3028
G01 X32.7501 Y18.2537
G01 X32.7497 Y18.2400
G01 X32.7497 Y13.2579
G01 X32.5872 Y13.2500
G01 X32.5599 Y13.2473
G01 X32.2687 Y13.2041
G01 X32.2417 Y13.1987
G01 X31.9562 Y13.1272
G01 X31.9299 Y13.1192
G01 X31.6527 Y13.0200
G01 X31.6273 Y13.0095
G01 X31.3612 Y12.8837
G01 X31.3370 Y12.8707
G01 X31.0845 Y12.7194
G01 X31.0616 Y12.7041
G01 X30.8252 Y12.5287
G01 X30.8039 Y12.5113
G01 X30.5858 Y12.3136
G01 X30.5664 Y12.2942
G01 X30.3687 Y12.0761
G01 X30.3513 Y12.0548
G01 X30.1759 Y11.8184
G01 X30.1606 Y11.7955
G01 X30.0093 Y11.5430
G01 X29.9963 Y11.5188
G01 X29.8705 Y11.2527
G01 X29.8600 Y11.2273
G01 X29.7608 Y10.9501
G01 X29.7528 Y10.9238
G01 X29.6813 Y10.6383
G01 X29.6759 Y10.6113
G01 X29.6327 Y10.3201
G01 X29.6300 Y10.2928
G01 X29.6156 Y9.9987
G01 X29.6156 Y9.9713
G01 X29.6300 Y9.6772
G01 X29.6327 Y9.6499
G01 X29.6759 Y9.3587
G01 X29.6813 Y9.3317
G01 X29.7188 Y9.1822
G01 X27.3449 Y6.8083
G01 X27.3191 Y6.8122
G01 X27.2918 Y6.8148
G01 X27.1937 Y6.8197
G01 X27.1663 Y6.8197
G01 X27.0682 Y6.8148
G01 X27.0409 Y6.8122
G01 X26.9438 Y6.7978
G01 X26.9169 Y6.7924
G01 X26.8217 Y6.7685
G01 X26.7954 Y6.7606
G01 X26.7030 Y6.7275
G01 X26.6776 Y6.7170
G01 X26.5889 Y6.6750
G01 X26.5647 Y6.6621
G01 X26.4805 Y6.6116
G01 X26.4576 Y6.5964
G01 X26.3788 Y6.5379
G01 X26.3576 Y6.5205
G01 X26.2849 Y6.4546
G01 X26.2654 Y6.4351
G01 X26.1995 Y6.3624
G01 X26.1821 Y6.3412
G01 X26.1666 Y6.3203
G01 X23.7484 Y6.3203
G01 X23.7329 Y6.3412
G01 X23.7155 Y6.3624
G01 X23.6496 Y6.4351
G01 X23.6301 Y6.4546
G01 X23.5574 Y6.5205
G01 X23.5362 Y6.5379
G01 X23.4574 Y6.5964
G01 X23.4345 Y6.6116
G01 X23.3503 Y6.6621
G01 X23.3261 Y6.6750
G01 X23.2374 Y6.7170
G01 X23.2120 Y6.7275
G01 X23.1196 Y6.7606
G01 X23.0933 Y6.7685
G01 X22.9981 Y6.7924
G01 X22.9712 Y6.7978
G01 X22.8741 Y6.8122
G01 X22.8468 Y6.8148
G01 X22.7487 Y6.8197
G01 X22.7213 Y6.8197
G01 X22.6232 Y6.8148
G01 X22.5959 Y6.8122
G01 X22.4988 Y6.7978
G01 X22.4719 Y6.7924
G01 X22.3767 Y6.7685
G01 X22.3504 Y6.7606
G01 X22.2580 Y6.7275
G01 X22.2326 Y6.7170
G01 X22.1439 Y6.6750
G01 X22.1197 Y6.6621
G01 X22.0355 Y6.6116
G01 X22.0126 Y6.5964
G01 X21.9338 Y6.5379
G01 X21.9126 Y6.5205
G01 X21.8399 Y6.4546
G01 X21.8204 Y6.4351
G01 X21.7545 Y6.3624
G01 X21.7371 Y6.3412
G01 X21.7216 Y6.3203
G01 X19.9384 Y6.3203
G01 X19.9229 Y6.3412
G01 X19.9055 Y6.3624
G01 X19.8396 Y6.4351
G01 X19.8201 Y6.4546
G01 X19.7474 Y6.5205
G01 X19.7262 Y6.5379
G01 X19.6474 Y6.5964
G01 X19.6245 Y6.6116
G01 X19.5403 Y6.6621
G01 X19.5161 Y6.6750
G01 X19.4274 Y6.7170
G01 X19.4020 Y6.7275
G01 X19.3096 Y6.7606
G01 X19.2833 Y6.7685
G01 X19.1881 Y6.7924
G01 X19.1612 Y6.7978
G01 X19.0641 Y6.8122
G01 X19.0368 Y6.8148
G01 X18.9387 Y6.8197
G01 X18.9113 Y6.8197
G01 X18.8132 Y6.8148
G01 X18.7859 Y6.8122
G01 X18.6888 Y6.7978
G01 X18.6619 Y6.7924
G01 X18.5667 Y6.7685
G01 X18.5404 Y6.7606
G01 X18.4480 Y6.7275
G00 Z2.0000
G00 X18.5086 Y6.5580
G01 F60.00
G01 Z-0.1000
G01 F120.00
G01 X18.4996 Y6.5543
G01 X18.4108 Y6.5123
G01 X18.4022 Y6.5077
G01 X18.3180 Y6.4572
G01 X18.3099 Y6.4518
G01 X18.2310 Y6.3933
G01 X18.2235 Y6.3871
G01 X18.1507 Y6.3212
G01 X18.1438 Y6.3143
G01 X18.0779 Y6.2415
G01 X18.0717 Y6.2340
G01 X18.0132 Y6.1551
G01 X18.0078 Y6.1470
G01 X17.9573 Y6.0628
G01 X17.9527 Y6.0542
G01 X17.9107 Y5.9654
G01 X17.9070 Y5.9564
G01 X17.8739 Y5.8640
G01 X17.8711 Y5.8546
G01 X17.8472 Y5.7594
G01 X17.8453 Y5.7498
G01 X17.8309 Y5.6527
G01 X17.8299 Y5.6429
G01 X17.8251 Y5.5449
G01 X17.8251 Y5.5351
G01 X17.8299 Y5.4371
G01 X17.8309 Y5.4273
G01 X17.8453 Y5.3302
G01 X17.8472 Y5.3206
G01 X17.8711 Y5.2254
G01 X17.8739 Y5.2160
G01 X17.9070 Y5.1236
G01 X17.9107 Y5.1146
G01 X17.9527 Y5.0258
G01 X17.9573 Y5.0172
G01 X18.0078 Y4.9330
G01 X18.0132 Y4.9249
G01 X18.0717 Y4.8460
G01 X18.0779 Y4.8385
G01 X18.1438 Y4.7657
G01 X18.1507 Y4.7588
G01 X18.2235 Y4.6929
G01 X18.2310 Y4.6867
G01 X18.3099 Y4.6282
G01 X18.3180 Y4.6228
G01 X18.4022 Y4.5723
G01 X18.4108 Y4.5677
G01 X18.4996 Y4.5257
G01 X18.5086 Y4.5220
G01 X18.6010 Y4.4889
G01 X18.6104 Y4.4861
G01 X18.7056 Y4.4622
G01 X18.7152 Y4.4603
G01 X18.8123 Y4.4459
G01 X18.8221 Y4.4449
G01 X18.9201 Y4.4401
G01 X18.9299 Y4.4401
G01 X19.0279 Y4.4449
G01 X19.0377 Y4.4459
G01 X19.1348 Y4.4603
G01 X19.1444 Y4.4622
G01 X19.2396 Y4.4861
G01 X19.2490 Y4.4889
G01 X19.3414 Y4.5220
G01 X19.3504 Y4.5257
G01 X19.4392 Y4.5677
G01 X19.4478 Y4.5723
G01 X19.5320 Y4.6228
G01 X19.5401 Y4.6282
G01 X19.6190 Y4.6867
G01 X19.6265 Y4.6929
G01 X19.6993 Y4.7588
G01 X19.7062 Y4.7657
G01 X19.7721 Y4.8385
G01 X19.7783 Y4.8460
G01 X19.8368 Y4.9249
G01 X19.8463 Y4.9397
G01 X21.8137 Y4.9397
G01 X21.8232 Y4.9249
G01 X21.8817 Y4.8460
G01 X21.8879 Y4.8385
G01 X21.9538 Y4.7657
G01 X21.9607 Y4.7588
G01 X22.0335 Y4.6929
G01 X22.0410 Y4.6867
G01 X22.1199 Y4.6282
G01 X22.1280 Y4.6228
G01 X22.2122 Y4.5723
G01 X22.2208 Y4.5677
G01 X22.3096 Y4.5257
G01 X22.3186 Y4.5220
G01 X22.4110 Y4.4889
G01 X22.4204 Y4.4861
G01 X22.5156 Y4.4622
G01 X22.5252 Y4.4603
G01 X22.6223 Y4.4459
G01 X22.6321 Y4.4449
G01 X22.7301 Y4.4401
G01 X22.7399 Y4.4401
G01 X22.8379 Y4.4449
G01 X22.8477 Y4.4459
G01 X22.9448 Y4.4603
G01 X22.9544 Y4.4622
G01 X23.0496 Y4.4861
G01 X23.0590 Y4.4889
G01 X23.1514 Y4.5220
G01 X23.1604 Y4.5257
G01 X23.2492 Y4.5677
G01 X23.2578 Y4.5723
G01 X23.3420 Y4.6228
G01 X23.3501 Y4.6282
G01 X23.4290 Y4.6867
G01 X23.4365 Y4.6929
G01 X23.5093 Y4.7588
G01 X23.5162 Y4.7657
G01 X23.5821 Y4.8385
G01 X23.5883 Y4.8460
G01 X23.6468 Y4.9249
G01 X23.6563 Y4.9397
G01 X26.2587 Y4.9397
G01 X26.2682 Y4.9249
G01 X26.3267 Y4.8460
G01 X26.3329 Y4.8385
G01 X26.3988 Y4.7657
G01 X26.4057 Y4.7588
G01 X26.4785 Y4.6929
G01 X26.4860 Y4.6867
G01 X26.5649 Y4.6282
G01 X26.5730 Y4.6228
G01 X26.6572 Y4.5723
G01 X26.6658 Y4.5677
G01 X26.7546 Y4.5257
G01 X26.7636 Y4.5220
G01 X26.8560 Y4.4889
G01 X26.8654 Y4.4861
G01 X26.9606 Y4.4622
G01 X26.9702 Y4.4603
G01 X27.0673 Y4.4459
G01 X27.0771 Y4.4449
G01 X27.1751 Y4.4401
G01 X27.1849 Y4.4401
G01 X27.2829 Y4.4449
G01 X27.2927 Y4.4459
G01 X27.3898 Y4.4603
G01 X27.3994 Y4.4622
G01 X27.4946 Y4.4861
G01 X27.5040 Y4.4889
G01 X27.5964 Y4.5220
G01 X27.6054 Y4.5257
G01 X27.6942 Y4.5677
G01 X27.7028 Y4.5723
G01 X27.7870 Y4.6228
G01 X27.7951 Y4.6282
G01 X27.8740 Y4.6867
G01 X27.8815 Y4.6929
G01 X27.9543 Y4.7588
G01 X27.9612 Y4.7657
G01 X28.0271 Y4.8385
G01 X28.0333 Y4.8460
G01 X28.0918 Y4.9249
G01 X28.0972 Y4.9330
G01 X28.1477 Y5.0172
G01 X28.1523 Y5.0258
G01 X28.1943 Y5.1146
G01 X28.1980 Y5.1236
G01 X28.2311 Y5.2160
G01 X28.2339 Y5.2254
G01 X28.2578 Y5.3206
G01 X28.2597 Y5.3302
G01 X28.2741 Y5.4273
G01 X28.2751 Y5.4371
G01 X28.2799 Y5.5351
G01 X28.2799 Y5.5449
G01 X28.2751 Y5.6429
G01 X28.2741 Y5.6527
G01 X28.2597 Y5.7498
G01 X28.2559 Y5.7670
G01 X30.5029 Y8.0140
G01 X30.6998 Y7.7967
G01 X30.7067 Y7.7898
G01 X30.9248 Y7.5921
G01 X30.9324 Y7.5858
G01 X31.1689 Y7.4105
G01 X31.1770 Y7.4050
G01 X31.4295 Y7.2537
G01 X31.4382 Y7.2491
G01 X31.7043 Y7.1232
G01 X31.7134 Y7.1194
G01 X31.9905 Y7.0203
G01 X31.9999 Y7.0174
G01 X32.2855 Y6.9459
G01 X32.2951 Y6.9440
G01 X32.5863 Y6.9008
G01 X32.5961 Y6.8998
G01 X32.8901 Y6.8854
G01 X32.8999 Y6.8854
G01 X33.1939 Y6.8998
G01 X33.2037 Y6.9008
G01 X33.4949 Y6.9440
G01 X33.5045 Y6.9459
G01 X33.7901 Y7.0174
G01 X33.7995 Y7.0203
G01 X34.0766 Y7.1194
G01 X34.0857 Y7.1232
G01 X34.3518 Y7.2491
G01 X34.3605 Y7.2537
G01 X34.6130 Y7.4050
G01 X34.6211 Y7.4105
G01 X34.8576 Y7.5858
G01 X34.8652 Y7.5921
G01 X35.0833 Y7.7898
G01 X35.0902 Y7.7967
G01 X35.2879 Y8.0148
G01 X35.2942 Y8.0224
G01 X35.4695 Y8.2589
G01 X35.4750 Y8.2670
G01 X35.6263 Y8.5195
G01 X35.6309 Y8.5282
G01 X35.7568 Y8.7943
G01 X35.7606 Y8.8034
G01 X35.8597 Y9.0805
G01 X35.8626 Y9.0899
G01 X35.9341 Y9.3755
G01 X35.9360 Y9.3851
G01 X35.9792 Y9.6763
G01 X35.9802 Y9.6861
G01 X35.9946 Y9.9801
G01 X35.9946 Y9.9899
G01 X35.9802 Y10.2839
G01 X35.9792 Y10.2937
G01 X35.9360 Y10.5849
G01 X35.9341 Y10.5945
G01 X35.8626 Y10.8801
G01 X35.8597 Y10.8895
G01 X35.7606 Y11.1666
G01 X35.7568 Y11.1757
G01 X35.6309 Y11.4418
G01 X35.6263 Y11.4505
G01 X35.4750 Y11.7030
G01 X35.4695 Y11.7111
G01 X35.2942 Y11.9476
G01 X35.2879 Y11.9552
G01 X35.0902 Y12.1733
G01 X35.0833 Y12.1802
G01 X34.8652 Y12.3779
G01 X34.8576 Y12.3842
G01 X34.6211 Y12.5595
G01 X34.6130 Y12.5650
G01 X34.3605 Y12.7163
G01 X34.3518 Y12.7209
G01 X34.1303 Y12.8257
G01 X34.1303 Y17.9914
G01 X43.3036 Y27.1647
G01 X44.0615 Y27.1647
G01 X44.0840 Y27.1345
G01 X44.0902 Y27.1269
G01 X44.1495 Y27.0614
G01 X44.1564 Y27.0545
G01 X44.2219 Y26.9952
G01 X44.2295 Y26.9890
G01 X44.3004 Y26.9364
G01 X44.3086 Y26.9309
G01 X44.3843 Y26.8855
G01 X44.3930 Y26.8809
G01 X44.4728 Y26.8431
G01 X44.4819 Y26.8394
G01 X44.5651 Y26.8096
G01 X44.5744 Y26.8068
G01 X44.6601 Y26.7853
G01 X44.6697 Y26.7834
G01 X44.7571 Y26.7704
G01 X44.7669 Y26.7695
G01 X44.8600 Y26.7650
G01 X45.0649 Y26.7651
G01 X45.1531 Y26.7695
G01 X45.1629 Y26.7704
G01 X45.2503 Y26.7834
G01 X45.2599 Y26.7853
G01 X45.3456 Y26.8068
G01 X45.3549 Y26.8096
G01 X45.4381 Y26.8394
G01 X45.4472 Y26.8431
G01 X45.5270 Y26.8809
G01 X45.5357 Y26.8855
G01 X45.6114 Y26.9309
G01 X45.6196 Y26.9364
G01 X45.6905 Y26.9890
G01 X45.6981 Y26.9952
G01 X45.7636 Y27.0545
G01 X45.7705 Y27.0614
G01 X45.8298 Y27.1269
G01 X45.8360 Y27.1345
G01 X45.8886 Y27.2054
G01 X45.8941 Y27.2136
G01 X45.9395 Y27.2893
G01 X45.9441 Y27.2980
G01 X45.9819 Y27.3778
G01 X45.9856 Y27.3869
G01 X46.0154 Y27.4701
G01 X46.0182 Y27.4794
G01 X46.0397 Y27.5651
G01 X46.0416 Y27.5747
G01 X46.0546 Y27.6621
G01 X46.0555 Y27.6719
G01 X46.0599 Y27.7601
G01 X46.0599 Y27.7699
G01 X46.0555 Y27.8581
G01 X46.0546 Y27.8679
G01 X46.0416 Y27.9553
G01 X46.0397 Y27.9649
G01 X46.0182 Y28.0506
G01 X46.0154 Y28.0599
G01 X45.9856 Y28.1431
G01 X45.9819 Y28.1522
G01 X45.9441 Y28.2320
G01 X45.9395 Y28.2407
G01 X45.8941 Y28.3164
G01 X45.8886 Y28.3246
G01 X45.8360 Y28.3955
G01 X45.8298 Y28.4031
G01 X45.7705 Y28.4686
G01 X45.7636 Y28.4755
G01 X45.6981 Y28.5348
G01 X45.6905 Y28.5410
G01 X45.6196 Y28.5936
G01 X45.6114 Y28.5991
G01 X45.5357 Y28.6445
G01 X45.5270 Y28.6491
G01 X45.4472 Y28.6869
G01 X45.4381 Y28.6906
G01 X45.3549 Y28.7204
G01 X45.3456 Y28.7232
G01 X45.2599 Y28.7447
G01 X45.2503 Y28.7466
G01 X45.1629 Y28.7596
G01 X45.1531 Y28.7605
G01 X45.0600 Y28.7650
G01 X44.8600 Y28.7650
G01 X44.7669 Y28.7605
G01 X44.7571 Y28.7596
G01 X44.6697 Y28.7466
G01 X44.6601 Y28.7447
G01 X44.5744 Y28.7232
G01 X44.5651 Y28.7204
G01 X44.4819 Y28.6906
G01 X44.4728 Y28.6869
G01 X44.3930 Y28.6491
G01 X44.3843 Y28.6445
G01 X44.3086 Y28.5991
G01 X44.3004 Y28.5936
G01 X44.2295 Y28.5410
G01 X44.2219 Y28.5348
G01 X44.1564 Y28.4755
G01 X44.1495 Y28.4686
G01 X44.0902 Y28.4031
G01 X44.0840 Y28.3955
G01 X44.0615 Y28.3653
G01 X43.0550 Y28.3653
G01 X43.0011 Y28.3627
G01 X42.9913 Y28.3618
G01 X42.9427 Y28.3546
G01 X42.9331 Y28.3526
G01 X42.8855 Y28.3407
G01 X42.8761 Y28.3379
G01 X42.8299 Y28.3213
G01 X42.8208 Y28.3176
G01 X42.7764 Y28.2966
G01 X42.7678 Y28.2920
G01 X42.7257 Y28.2667
G01 X42.7175 Y28.2613
G01 X42.6781 Y28.2320
G01 X42.6705 Y28.2258
G01 X42.6306 Y28.1894
G01 X33.1056 Y18.6644
G01 X33.0692 Y18.6245
G01 X33.0630 Y18.6169
G01 X33.0337 Y18.5775
G01 X33.0283 Y18.5693
G01 X33.0030 Y18.5272
G01 X32.9984 Y18.5186
G01 X32.9774 Y18.4742
G01 X32.9737 Y18.4651
G01 X32.9571 Y18.4189
G01 X32.9543 Y18.4095
G01 X32.9424 Y18.3619
G01 X32.9404 Y18.3523
G01 X32.9332 Y18.3037
G01 X32.9323 Y18.2939
G01 X32.9299 Y18.2449
G01 X32.9297 Y13.0832
G01 X32.8999 Y13.0846
G01 X32.8901 Y13.0846
G01 X32.5961 Y13.0702
G01 X32.5863 Y13.0692
G01 X32.2951 Y13.0260
G01 X32.2855 Y13.0241
G01 X31.9999 Y12.9526
G01 X31.9905 Y12.9497
G01 X31.7134 Y12.8506
G01 X31.7043 Y12.8468
G01 X31.4382 Y12.7209
G01 X31.4295 Y12.7163
G01 X31.1770 Y12.5650
G01 X31.1689 Y12.5595
G01 X30.9324 Y12.3842
G01 X30.9248 Y12.3779
G01 X30.7067 Y12.1802
G01 X30.6998 Y12.1733
G01 X30.5021 Y11.9552
G01 X30.4958 Y11.9476
G01 X30.3205 Y11.7111
G01 X30.3150 Y11.7030
G01 X30.1637 Y11.4505
G01 X30.1591 Y11.4418
G01 X30.0332 Y11.1757
G01 X30.0294 Y11.1666
G01 X29.9303 Y10.8895
G01 X29.9274 Y10.8801
G01 X29.8559 Y10.5945
G01 X29.8540 Y10.5849
G01 X29.8108 Y10.2937
G01 X29.8098 Y10.2839
G01 X29.7954 Y9.9899
G01 X29.7954 Y9.9801
G01 X29.8098 Y9.6861
G01 X29.8108 Y9.6763
G01 X29.8540 Y9.3851
G01 X29.8559 Y9.3755
G01 X29.9181 Y9.1270
G01 X27.4070 Y6.6159
G01 X27.3898 Y6.6197
G01 X27.2927 Y6.6341
G01 X27.2829 Y6.6351
G01 X27.1849 Y6.6399
G01 X27.1751 Y6.6399
G01 X27.0771 Y6.6351
G01 X27.0673 Y6.6341
G01 X26.9702 Y6.6197
G01 X26.9606 Y6.6178
G01 X26.8654 Y6.5939
G01 X26.8560 Y6.5911
G01 X26.7636 Y6.5580
G01 X26.7546 Y6.5543
G01 X26.6658 Y6.5123
G01 X26.6572 Y6.5077
G01 X26.5730 Y6.4572
G01 X26.5649 Y6.4518
G01 X26.4860 Y6.3933
G01 X26.4785 Y6.3871
G01 X26.4057 Y6.3212
G01 X26.3988 Y6.3143
G01 X26.3329 Y6.2415
G01 X26.3267 Y6.2340
G01 X26.2682 Y6.1551
G01 X26.2587 Y6.1403
G01 X23.6563 Y6.1403
G01 X23.6468 Y6.1551
G01 X23.5883 Y6.2340
G01 X23.5821 Y6.2415
G01 X23.5162 Y6.3143
G01 X23.5093 Y6.3212
G01 X23.4365 Y6.3871
G01 X23.4290 Y6.3933
G01 X23.3501 Y6.4518
G01 X23.3420 Y6.4572
G01 X23.2578 Y6.5077
G01 X23.2492 Y6.5123
G01 X23.1604 Y6.5543
G01 X23.1514 Y6.5580
G01 X23.0590 Y6.5911
G01 X23.0496 Y6.5939
G01 X22.9544 Y6.6178
G01 X22.9448 Y6.6197
G01 X22.8477 Y6.6341
G01 X22.8379 Y6.6351
G01 X22.7399 Y6.6399
G01 X22.7301 Y6.6399
G01 X22.6321 Y6.6351
G01 X22.6223 Y6.6341
G01 X22.5252 Y6.6197
G01 X22.5156 Y6.6178
G01 X22.4204 Y6.5939
G01 X22.4110 Y6.5911
G01 X22.3186 Y6.5580
G01 X22.3096 Y6.5543
G01 X22.2208 Y6.5123
G01 X22.2122 Y6.5077
G01 X22.1280 Y6.4572
G01 X22.1199 Y6.4518
G01 X22.0410 Y6.3933
G01 X22.0335 Y6.3871
G01 X21.9607 Y6.3212
G01 X21.9538 Y6.3143
G01 X21.8879 Y6.2415
G01 X21.8817 Y6.2340
G01 X21.8232 Y6.1551
G01 X21.8137 Y6.1403
G01 X19.8463 Y6.1403
G01 X19.8368 Y6.1551
G01 X19.7783 Y6.2340
G01 X19.7721 Y6.2415
G01 X19.7062 Y6.3143
G01 X19.6993 Y6.3212
G01 X19.6265 Y6.3871
G01 X19.6190 Y6.3933
G01 X19.5401 Y6.4518
G01 X19.5320 Y6.4572
G01 X19.4478 Y6.5077
G01 X19.4392 Y6.5123
G01 X19.3504 Y6.5543
G01 X19.3414 Y6.5580
G01 X19.2490 Y6.5911
G01 X19.2396 Y6.5939
G01 X19.1444 Y6.6178
G01 X19.1348 Y6.6197
G01 X19.0377 Y6.6341
G01 X19.0279 Y6.6351
G01 X18.9299 Y6.6399
G01 X18.9201 Y6.6399
G01 X18.8221 Y6.6351
G01 X18.8123 Y6.6341
G01 X18.7152 Y6.6197
G01 X18.7056 Y6.6178
G01 X18.6104 Y6.5939
G01 X18.6010 Y6.5911
G01 X18.5086 Y6.5580
G00 Z2.0000
G00 X18.1447 Y15.9292
G01 F60.00
G01 Z-0.1000
G01 F120.00
G01 X18.1447 Y14.1734
G01 X18.1238 Y14.1579
G01 X18.1026 Y14.1405
G01 X18.0299 Y14.0746
G01 X18.0104 Y14.0551
G01 X17.9445 Y13.9824
G01 X17.9271 Y13.9612
G01 X17.8686 Y13.8824
G01 X17.8534 Y13.8595
G01 X17.8029 Y13.7753
G01 X17.7900 Y13.7511
G01 X17.7480 Y13.6624
G01 X17.7375 Y13.6370
G01 X17.7044 Y13.5446
G01 X17.6965 Y13.5183
G01 X17.6726 Y13.4231
G01 X17.6672 Y13.3962
G01 X17.6528 Y13.2991
G01 X17.6502 Y13.2718
G01 X17.6453 Y13.1737
G01 X17.6453 Y13.1463
G01 X17.6502 Y13.0482
G01 X17.6528 Y13.0209
G01 X17.6672 Y12.9238
G01 X17.6726 Y12.8969
G01 X17.6965 Y12.8017
G01 X17.7044 Y12.7754
G01 X17.7375 Y12.6830
G01 X17.7480 Y12.6576
G01 X17.7900 Y12.5689
G01 X17.8029 Y12.5447
G01 X17.8534 Y12.4605
G01 X17.8686 Y12.4376
G01 X17.9271 Y12.3588
G01 X17.9445 Y12.3376
G01 X18.0104 Y12.2649
G01 X18.0299 Y12.2454
G01 X18.1026 Y12.1795
G01 X18.1238 Y12.1621
G01 X18.2026 Y12.1036
G01 X18.2255 Y12.0884
G01 X18.3097 Y12.0379
G01 X18.3339 Y12.0250
G01 X18.4226 Y11.9830
G01 X18.4480 Y11.9725
G01 X18.5404 Y11.9394
G01 X18.5667 Y11.9315
G01 X18.6619 Y11.9076
G01 X18.6888 Y11.9022
G01 X18.7859 Y11.8878
G01 X18.8132 Y11.8852
G01 X18.9113 Y11.8803
G01 X18.9387 Y11.8803
G01 X19.0368 Y11.8852
G01 X19.0641 Y11.8878
G01 X19.1612 Y11.9022
G01 X19.1881 Y11.9076
G01 X19.2833 Y11.9315
G01 X19.3096 Y11.9394
G01 X19.4020 Y11.9725
G01 X19.4274 Y11.9830
G01 X19.5161 Y12.0250
G01 X19.5403 Y12.0379
G01 X19.6245 Y12.0884
G01 X19.6474 Y12.1036
G01 X19.7262 Y12.1621
G01 X19.7474 Y12.1795
G01 X19.8201 Y12.2454
G01 X19.8396 Y12.2649
G01 X19.9055 Y12.3376
G01 X19.9229 Y12.3588
G01 X19.9814 Y12.4376
G01 X19.9966 Y12.4605
G01 X20.0471 Y12.5447
G01 X20.0600 Y12.5689
G01 X20.1020 Y12.6576
G01 X20.1125 Y12.6830
G01 X20.1456 Y12.7754
G01 X20.1535 Y12.8017
G01 X20.1774 Y12.8969
G01 X20.1828 Y12.9238
G01 X20.1972 Y13.0209
G01 X20.1998 Y13.0482
G01 X20.2047 Y13.1463
G01 X20.2047 Y13.1737
G01 X20.1998 Y13.2718
G01 X20.1972 Y13.2991
G01 X20.1828 Y13.3962
G01 X20.1774 Y13.4231
G01 X20.1535 Y13.5183
G01 X20.1456 Y13.5446
G01 X20.1125 Y13.6370
G01 X20.1020 Y13.6624
G01 X20.0600 Y13.7511
G01 X20.0471 Y13.7753
G01 X19.9966 Y13.8595
G01 X19.9814 Y13.8824
G01 X19.9229 Y13.9612
G01 X19.9055 Y13.9824
G01 X19.8396 Y14.0551
G01 X19.8201 Y14.0746
G01 X19.7474 Y14.1405
G01 X19.7262 Y14.1579
G01 X19.7053 Y14.1734
G01 X19.7053 Y15.9292
G01 X19.7182 Y15.9361
G01 X19.7940 Y15.9815
G01 X19.8168 Y15.9968
G01 X19.8877 Y16.0494
G01 X19.9090 Y16.0668
G01 X19.9744 Y16.1261
G01 X19.9939 Y16.1456
G01 X20.0532 Y16.2110
G01 X20.0706 Y16.2323
G01 X20.1232 Y16.3032
G01 X20.1385 Y16.3260
G01 X20.1839 Y16.4018
G01 X20.1968 Y16.4260
G01 X20.2346 Y16.5059
G01 X20.2451 Y16.5313
G01 X20.2749 Y16.6144
G01 X20.2829 Y16.6407
G01 X20.3043 Y16.7264
G01 X20.3097 Y16.7533
G01 X20.3226 Y16.8407
G01 X20.3253 Y16.8680
G01 X20.3297 Y16.9563
G01 X20.3297 Y16.9837
G01 X20.3253 Y17.0720
G01 X20.3226 Y17.0993
G01 X20.3097 Y17.1867
G01 X20.3043 Y17.2136
G01 X20.2829 Y17.2993
G01 X20.2749 Y17.3256
G01 X20.2451 Y17.4087
G01 X20.2346 Y17.4341
G01 X20.1968 Y17.5140
G01 X20.1839 Y17.5382
G01 X20.1385 Y17.6140
G01 X20.1232 Y17.6368
G01 X20.0706 Y17.7077
G01 X20.0532 Y17.7290
G01 X19.9939 Y17.7944
G01 X19.9744 Y17.8139
G01 X19.9090 Y17.8732
G01 X19.8877 Y17.8906
G01 X19.8168 Y17.9432
G01 X19.7940 Y17.9585
G01 X19.7182 Y18.0039
G01 X19.6940 Y18.0168
G01 X19.6141 Y18.0546
G01 X19.5887 Y18.0651
G01 X19.5056 Y18.0949
G01 X19.4793 Y18.1029
G01 X19.3936 Y18.1243
G01 X19.3667 Y18.1297
G01 X19.2793 Y18.1426
G01 X19.2520 Y18.1453
G01 X19.1637 Y18.1497
G01 X19.1500 Y18.1500
G01 X18.7000 Y18.1500
G01 X18.6863 Y18.1497
G01 X18.5980 Y18.1453
G01 X18.5707 Y18.1426
G01 X18.4833 Y18.1297
G01 X18.4564 Y18.1243
G01 X18.3707 Y18.1029
G01 X18.3444 Y18.0949
G01 X18.2613 Y18.0651
G01 X18.2359 Y18.0546
G01 X18.1560 Y18.0168
G01 X18.1318 Y18.0039
G01 X18.0560 Y17.9585
G01 X18.0332 Y17.9432
G01 X17.9623 Y17.8906
G01 X17.9410 Y17.8732
G01 X17.8756 Y17.8139
G01 X17.8561 Y17.7944
G01 X17.7968 Y17.7290
G01 X17.7794 Y17.7077
G01 X17.7268 Y17.6368
G01 X17.7115 Y17.6140
G01 X17.6661 Y17.5382
G01 X17.6532 Y17.5140
G01 X17.6154 Y17.4341
G01 X17.6049 Y17.4087
G01 X17.5751 Y17.3256
G01 X17.5671 Y17.2993
G01 X17.5457 Y17.2136
G01 X17.5403 Y17.1867
G01 X17.5274 Y17.0993
G01 X17.5247 Y17.0720
G01 X17.5203 Y16.9837
G01 X17.5203 Y16.9563
G01 X17.5247 Y16.8680
G01 X17.5274 Y16.8407
G01 X17.5403 Y16.7533
G01 X17.5457 Y16.7264
G01 X17.5671 Y16.6407
G01 X17.5751 Y16.6144
G01 X17.6049 Y16.5313
G01 X17.6154 Y16.5059
G01 X17.6532 Y16.4260
G01 X17.6661 Y16.4018
G01 X17.7115 Y16.3260
G01 X17.7268 Y16.3032
G01 X17.7794 Y16.2323
G01 X17.7968 Y16.2110
G01 X17.8561 Y16.1456
G01 X17.8756 Y16.1261
G01 X17.9410 Y16.0668
G01 X17.9623 Y16.0494
G01 X18.0332 Y15.9968
G01 X18.0560 Y15.9815
G01 X18.1318 Y15.9361
G01 X18.1447 Y15.9292
G00 Z2.0000
G00 X18.3219 Y17.8956
G01 F60.00
G01 Z-0.1000
G01 F120.00
G01 X18.3128 Y17.8919
G01 X18.2330 Y17.8541
G01 X18.2243 Y17.8495
G01 X18.1486 Y17.8041
G01 X18.1404 Y17.7986
G01 X18.0695 Y17.7460
G01 X18.0619 Y17.7398
G01 X17.9964 Y17.6805
G01 X17.9895 Y17.6736
G01 X17.9302 Y17.6081
G01 X17.9240 Y17.6005
G01 X17.8714 Y17.5296
G01 X17.8659 Y17.5214
G01 X17.8205 Y17.4457
G01 X17.8159 Y17.4370
G01 X17.7781 Y17.3572
G01 X17.7744 Y17.3481
G01 X17.7446 Y17.2649
G01 X17.7418 Y17.2556
G01 X17.7203 Y17.1699
G01 X17.7184 Y17.1603
G01 X17.7054 Y17.0729
G01 X17.7045 Y17.0631
G01 X17.7001 Y16.9749
G01 X17.7001 Y16.9651
G01 X17.7045 Y16.8769
G01 X17.7054 Y16.8671
G01 X17.7184 Y16.7797
G01 X17.7203 Y16.7701
G01 X17.7418 Y16.6844
G01 X17.7446 Y16.6751
G01 X17.7744 Y16.5919
G01 X17.7781 Y16.5828
G01 X17.8159 Y16.5030
G01 X17.8205 Y16.4943
G01 X17.8659 Y16.4186
G01 X17.8714 Y16.4104
G01 X17.9240 Y16.3395
G01 X17.9302 Y16.3319
G01 X17.9895 Y16.2664
G01 X17.9964 Y16.2595
G01 X18.0619 Y16.2002
G01 X18.0695 Y16.1940
G01 X18.1404 Y16.1414
G01 X18.1486 Y16.1359
G01 X18.2243 Y16.0905
G01 X18.2330 Y16.0859
G01 X18.3128 Y16.0481
G01 X18.3247 Y16.0433
G01 X18.3247 Y14.0813
G01 X18.3099 Y14.0718
G01 X18.2310 Y14.0133
G01 X18.2235 Y14.0071
G01 X18.1507 Y13.9412
G01 X18.1438 Y13.9343
G01 X18.0779 Y13.8615
G01 X18.0717 Y13.8540
G01 X18.0132 Y13.7751
G01 X18.0078 Y13.7670
G01 X17.9573 Y13.6828
G01 X17.9527 Y13.6742
G01 X17.9107 Y13.5854
G01 X17.9070 Y13.5764
G01 X17.8739 Y13.4840
G01 X17.8711 Y13.4746
G01 X17.8472 Y13.3794
G01 X17.8453 Y13.3698
G01 X17.8309 Y13.2727
G01 X17.8299 Y13.2629
G01 X17.8251 Y13.1649
G01 X17.8251 Y13.1551
G01 X17.8299 Y13.0571
G01 X17.8309 Y13.0473
G01 X17.8453 Y12.9502
G01 X17.8472 Y12.9406
G01 X17.8711 Y12.8454
G01 X17.8739 Y12.8360
G01 X17.9070 Y12.7436
G01 X17.9107 Y12.7346
G01 X17.9527 Y12.6458
G01 X17.9573 Y12.6372
G01 X18.0078 Y12.5530
G01 X18.0132 Y12.5449
G01 X18.0717 Y12.4660
G01 X18.0779 Y12.4585
G01 X18.1438 Y12.3857
G01 X18.1507 Y12.3788
G01 X18.2235 Y12.3129
G01 X18.2310 Y12.3067
G01 X18.3099 Y12.2482
G01 X18.3180 Y12.2428
G01 X18.4022 Y12.1923
G01 X18.4108 Y12.1877
G01 X18.4996 Y12.1457
G01 X18.5086 Y12.1420
G01 X18.6010 Y12.1089
G01 X18.6104 Y12.1061
G01 X18.7056 Y12.0822
G01 X18.7152 Y12.0803
G01 X18.8123 Y12.0659
G01 X18.8221 Y12.0649
G01 X18.9201 Y12.0601
G01 X18.9299 Y12.0601
G01 X19.0279 Y12.0649
G01 X19.0377 Y12.0659
G01 X19.1348 Y12.0803
G01 X19.1444 Y12.0822
G01 X19.2396 Y12.1061
G01 X19.2490 Y12.1089
G01 X19.3414 Y12.1420
G01 X19.3504 Y12.1457
G01 X19.4392 Y12.1877
G01 X19.4478 Y12.1923
G01 X19.5320 Y12.2428
G01 X19.5401 Y12.2482
G01 X19.6190 Y12.3067
G01 X19.6265 Y12.3129
G01 X19.6993 Y12.3788
G01 X19.7062 Y12.3857
G01 X19.7721 Y12.4585
G01 X19.7783 Y12.4660
G01 X19.8368 Y12.5449
G01 X19.8422 Y12.5530
G01 X19.8927 Y12.6372
G01 X19.8973 Y12.6458
G01 X19.9393 Y12.7346
G01 X19.9430 Y12.7436
G01 X19.9761 Y12.8360
G01 X19.9789 Y12.8454
G01 X20.0028 Y12.9406
G01 X20.0047 Y12.9502
G01 X20.0191 Y13.0473
G01 X20.0201 Y13.0571
G01 X20.0249 Y13.1551
G01 X20.0249 Y13.1649
G01 X20.0201 Y13.2629
G01 X20.0191 Y13.2727
G01 X20.0047 Y13.3698
G01 X20.0028 Y13.3794
G01 X19.9789 Y13.4746
G01 X19.9761 Y13.4840
G01 X19.9430 Y13.5764
G01 X19.9393 Y13.5854
G01 X19.8973 Y13.6742
G01 X19.8927 Y13.6828
G01 X19.8422 Y13.7670
G01 X19.8368 Y13.7751
G01 X19.7783 Y13.8540
G01 X19.7721 Y13.8615
G01 X19.7062 Y13.9343
G01 X19.6993 Y13.9412
G01 X19.6265 Y14.0071
G01 X19.6190 Y14.0133
G01 X19.5401 Y14.0718
G01 X19.5253 Y14.0813
G01 X19.5253 Y16.0433
G01 X19.5372 Y16.0481
G01 X19.6170 Y16.0859
G01 X19.6257 Y16.0905
G01 X19.7014 Y16.1359
G01 X19.7096 Y16.1414
G01 X19.7805 Y16.1940
G01 X19.7881 Y16.2002
G01 X19.8536 Y16.2595
G01 X19.8605 Y16.2664
G01 X19.9198 Y16.3319
G01 X19.9260 Y16.3395
G01 X19.9786 Y16.4104
G01 X19.9841 Y16.4186
G01 X20.0295 Y16.4943
G01 X20.0341 Y16.5030
G01 X20.0719 Y16.5828
G01 X20.0756 Y16.5919
G01 X20.1054 Y16.6751
G01 X20.1082 Y16.6844
G01 X20.1297 Y16.7701
G01 X20.1316 Y16.7797
G01 X20.1446 Y16.8671
G01 X20.1455 Y16.8769
G01 X20.1499 Y16.9651
G01 X20.1499 Y16.9749
G01 X20.1455 Y17.0631
G01 X20.1446 Y17.0729
G01 X20.1316 Y17.1603
G01 X20.1297 Y17.1699
G01 X20.1082 Y17.2556
G01 X20.1054 Y17.2649
G01 X20.0756 Y17.3481
G01 X20.0719 Y17.3572
G01 X20.0341 Y17.4370
G01 X20.0295 Y17.4457
G01 X19.9841 Y17.5214
G01 X19.9786 Y17.5296
G01 X19.9260 Y17.6005
G01 X19.9198 Y17.6081
G01 X19.8605 Y17.6736
G01 X19.8536 Y17.6805
G01 X19.7881 Y17.7398
G01 X19.7805 Y17.7460
G01 X19.7096 Y17.7986
G01 X19.7014 Y17.8041
G01 X19.6257 Y17.8495
G01 X19.6170 Y17.8541
G01 X19.5372 Y17.8919
G01 X19.5281 Y17.8956
G01 X19.4449 Y17.9254
G01 X19.4356 Y17.9282
G01 X19.3499 Y17.9497
G01 X19.3403 Y17.9516
G01 X19.2529 Y17.9646
G01 X19.2431 Y17.9655
G01 X19.1500 Y17.9700
G01 X18.7000 Y17.9700
G01 X18.6069 Y17.9655
G01 X18.5971 Y17.9646
G01 X18.5097 Y17.9516
G01 X18.5001 Y17.9497
G01 X18.4144 Y17.9282
G01 X18.4051 Y17.9254
G01 X18.3219 Y17.8956
G00 Z2.0000
G00 X18.1447 Y21.0092
G01 F60.00
G01 Z-0.1000
G01 F120.00
G01 X18.1447 Y20.5508
G01 X18.1318 Y20.5439
G01 X18.0560 Y20.4985
G01 X18.0332 Y20.4832
G01 X17.9623 Y20.4306
G01 X17.9410 Y20.4132
G01 X17.8756 Y20.3539
G01 X17.8561 Y20.3344
G01 X17.7968 Y20.2690
G01 X17.7794 Y20.2477
G01 X17.7268 Y20.1768
G01 X17.7115 Y20.1540
G01 X17.6661 Y20.0782
G01 X17.6532 Y20.0540
G01 X17.6154 Y19.9741
G01 X17.6049 Y19.9487
G01 X17.5751 Y19.8656
G01 X17.5671 Y19.8393
G01 X17.5457 Y19.7536
G01 X17.5403 Y19.7267
G01 X17.5274 Y19.6393
G01 X17.5247 Y19.6120
G01 X17.5203 Y19.5237
G01 X17.5203 Y19.4963
G01 X17.5247 Y19.4080
G01 X17.5274 Y19.3807
G01 X17.5403 Y19.2933
G01 X17.5457 Y19.2664
G01 X17.5671 Y19.1807
G01 X17.5751 Y19.1544
G01 X17.6049 Y19.0713
G01 X17.6154 Y19.0459
G01 X17.6532 Y18.9660
G01 X17.6661 Y18.9418
G01 X17.7115 Y18.8660
G01 X17.7268 Y18.8432
G01 X17.7794 Y18.7723
G01 X17.7968 Y18.7510
G01 X17.8561 Y18.6856
G01 X17.8756 Y18.6661
G01 X17.9410 Y18.6068
G01 X17.9623 Y18.5894
G01 X18.0332 Y18.5368
G01 X18.0560 Y18.5215
G01 X18.1318 Y18.4761
G01 X18.1560 Y18.4632
G01 X18.2359 Y18.4254
G01 X18.2613 Y18.4149
G01 X18.3444 Y18.3851
G01 X18.3707 Y18.3771
G01 X18.4564 Y18.3557
G01 X18.4833 Y18.3503
G01 X18.5707 Y18.3374
G01 X18.5980 Y18.3347
G01 X18.6863 Y18.3303
G01 X18.7000 Y18.3300
G01 X19.1500 Y18.3300
G01 X19.1637 Y18.3303
G01 X19.2520 Y18.3347
G01 X19.2793 Y18.3374
G01 X19.3667 Y18.3503
G01 X19.3936 Y18.3557
G01 X19.4793 Y18.3771
G01 X19.5056 Y18.3851
G01 X19.5887 Y18.4149
G01 X19.6141 Y18.4254
G01 X19.6940 Y18.4632
G01 X19.7182 Y18.4761
G01 X19.7940 Y18.5215
G01 X19.8168 Y18.5368
G01 X19.8877 Y18.5894
G01 X19.9090 Y18.6068
G01 X19.9744 Y18.6661
G01 X19.9939 Y18.6856
G01 X20.0339 Y18.7297
G01 X21.6261 Y18.7297
G01 X21.6661 Y18.6856
G01 X21.6856 Y18.6661
G01 X21.7510 Y18.6068
G01 X21.7723 Y18.5894
G01 X21.8432 Y18.5368
G01 X21.8660 Y18.5215
G01 X21.9418 Y18.4761
G01 X21.9660 Y18.4632
G01 X22.0459 Y18.4254
G01 X22.0713 Y18.4149
G01 X22.1544 Y18.3851
G01 X22.1807 Y18.3771
G01 X22.2664 Y18.3557
G01 X22.2933 Y18.3503
G01 X22.3807 Y18.3374
G01 X22.4080 Y18.3347
G01 X22.4963 Y18.3303
G01 X22.5100 Y18.3300
G01 X22.9600 Y18.3300
G01 X22.9737 Y18.3303
G01 X23.0620 Y18.3347
G01 X23.0893 Y18.3374
G01 X23.1767 Y18.3503
G01 X23.2036 Y18.3557
G01 X23.2893 Y18.3771
G01 X23.3156 Y18.3851
G01 X23.3987 Y18.4149
G01 X23.4241 Y18.4254
G01 X23.5040 Y18.4632
G01 X23.5282 Y18.4761
G01 X23.6040 Y18.5215
G01 X23.6268 Y18.5368
G01 X23.6977 Y18.5894
G01 X23.7190 Y18.6068
G01 X23.7844 Y18.6661
G01 X23.8039 Y18.6856
G01 X23.8632 Y18.7510
G01 X23.8806 Y18.7723
G01 X23.9332 Y18.8432
G01 X23.9485 Y18.8660
G01 X23.9939 Y18.9418
G01 X24.0068 Y18.9660
G01 X24.0446 Y19.0459
G01 X24.0551 Y19.0713
G01 X24.0849 Y19.1544
G01 X24.0929 Y19.1807
G01 X24.1143 Y19.2664
G01 X24.1197 Y19.2933
G01 X24.1326 Y19.3807
G01 X24.1353 Y19.4080
G01 X24.1397 Y19.4963
G01 X24.1397 Y19.5237
G01 X24.1353 Y19.6120
G01 X24.1326 Y19.6393
G01 X24.1197 Y19.7267
G01 X24.1143 Y19.7536
G01 X24.0929 Y19.8393
G01 X24.0849 Y19.8656
G01 X24.0551 Y19.9487
G01 X24.0446 Y19.9741
G01 X24.0068 Y20.0540
G01 X23.9939 Y20.0782
G01 X23.9485 Y20.1540
G01 X23.9332 Y20.1768
G01 X23.8806 Y20.2477
G01 X23.8632 Y20.2690
G01 X23.8039 Y20.3344
G01 X23.7844 Y20.3539
G01 X23.7190 Y20.4132
G01 X23.6977 Y20.4306
G01 X23.6268 Y20.4832
G01 X23.6040 Y20.4985
G01 X23.5282 Y20.5439
G01 X23.5040 Y20.5568
G01 X23.4241 Y20.5946
G01 X23.3987 Y20.6051
G01 X23.3156 Y20.6349
G01 X23.2893 Y20.6429
G01 X23.2036 Y20.6643
G01 X23.1767 Y20.6697
G01 X23.0893 Y20.6826
G01 X23.0620 Y20.6853
G01 X22.9737 Y20.6897
G01 X22.9600 Y20.6900
G01 X22.5100 Y20.6900
G01 X22.4963 Y20.6897
G01 X22.4080 Y20.6853
G01 X22.3807 Y20.6826
G01 X22.2933 Y20.6697
G01 X22.2664 Y20.6643
G01 X22.1807 Y20.6429
G01 X22.1544 Y20.6349
G01 X22.0713 Y20.6051
G01 X22.0459 Y20.5946
G01 X21.9660 Y20.5568
G01 X21.9418 Y20.5439
G01 X21.8660 Y20.4985
G01 X21.8432 Y20.4832
G01 X21.7723 Y20.4306
G01 X21.7510 Y20.4132
G01 X21.6856 Y20.3539
G01 X21.6661 Y20.3344
G01 X21.6261 Y20.2903
G01 X20.0339 Y20.2903
G01 X19.9939 Y20.3344
G01 X19.9744 Y20.3539
G01 X19.9090 Y20.4132
G01 X19.8877 Y20.4306
G01 X19.8168 Y20.4832
G01 X19.7940 Y20.4985
G01 X19.7182 Y20.5439
G01 X19.7053 Y20.5508
G01 X19.7053 Y21.0092
G01 X19.7182 Y21.0161
G01 X19.7940 Y21.0615
G01 X19.8168 Y21.0768
G01 X19.8877 Y21.1294
G01 X19.9090 Y21.1468
G01 X19.9744 Y21.2061
G01 X19.9939 Y21.2256
G01 X20.0532 Y21.2910
G01 X20.0706 Y21.3123
G01 X20.1232 Y21.3832
G01 X20.1385 Y21.4060
G01 X20.1839 Y21.4818
G01 X20.1968 Y21.5060
G01 X20.2346 Y21.5859
G01 X20.2451 Y21.6113
G01 X20.2749 Y21.6944
G01 X20.2829 Y21.7207
G01 X20.3043 Y21.8064
G01 X20.3097 Y21.8333
G01 X20.3226 Y21.9207
G01 X20.3253 Y21.9480
G01 X20.3297 Y22.0363
G01 X20.3297 Y22.0637
G01 X20.3253 Y22.1520
G01 X20.3226 Y22.1793
G01 X20.3097 Y22.2667
G01 X20.3043 Y22.2936
G01 X20.2829 Y22.3793
G01 X20.2749 Y22.4056
G01 X20.2451 Y22.4887
G01 X20.2346 Y22.5141
G01 X20.1968 Y22.5940
G01 X20.1839 Y22.6182
G01 X20.1385 Y22.6940
G01 X20.1232 Y22.7168
G01 X20.0706 Y22.7877
G01 X20.0532 Y22.8090
G01 X19.9939 Y22.8744
G01 X19.9744 Y22.8939
G01 X19.9090 Y22.9532
G01 X19.8877 Y22.9706
G01 X19.8168 Y23.0232
G01 X19.7940 Y23.0385
G01 X19.7182 Y23.0839
G01 X19.7053 Y23.0908
G01 X19.7053 Y28.4900
G01 X19.7850 Y28.4900
G01 X19.7987 Y28.4903
G01 X19.8870 Y28.4947
G01 X19.9143 Y28.4974
G01 X20.0017 Y28.5103
G01 X20.0286 Y28.5157
G01 X20.1143 Y28.5371
G01 X20.1406 Y28.5451
G01 X20.2237 Y28.5749
G01 X20.2491 Y28.5854
G01 X20.3290 Y28.6232
G01 X20.3532 Y28.6361
G01 X20.4290 Y28.6815
G01 X20.4518 Y28.6968
G01 X20.5227 Y28.7494
G01 X20.5440 Y28.7668
G01 X20.6094 Y28.8261
G01 X20.6289 Y28.8456
G01 X20.6847 Y28.9072
G01 X20.6847 Y27.9092
G01 X20.6851 Y27.8955
G01 X20.6875 Y27.8464
G01 X20.6902 Y27.8191
G01 X20.6974 Y27.7705
G01 X20.7028 Y27.7436
G01 X20.7147 Y27.6960
G01 X20.7227 Y27.6697
G01 X20.7392 Y27.6234
G01 X20.7497 Y27.5981
G01 X20.7707 Y27.5537
G01 X20.7837 Y27.5294
G01 X20.8089 Y27.4873
G01 X20.8242 Y27.4645
G01 X20.8534 Y27.4251
G01 X20.8708 Y27.4038
G01 X20.9038 Y27.3674
G01 X20.9133 Y27.3575
G01 X21.3197 Y26.9510
G01 X21.3197 Y26.8734
G01 X21.2988 Y26.8579
G01 X21.2776 Y26.8405
G01 X21.2049 Y26.7746
G01 X21.1854 Y26.7551
G01 X21.1195 Y26.6824
G01 X21.1021 Y26.6612
G01 X21.0436 Y26.5824
G01 X21.0284 Y26.5595
G01 X20.9779 Y26.4753
G01 X20.9650 Y26.4511
G01 X20.9230 Y26.3624
G01 X20.9125 Y26.3370
G01 X20.8794 Y26.2446
G01 X20.8715 Y26.2183
G01 X20.8476 Y26.1231
G01 X20.8422 Y26.0962
G01 X20.8278 Y25.9991
G01 X20.8252 Y25.9718
G01 X20.8203 Y25.8737
G01 X20.8203 Y25.8463
G01 X20.8252 Y25.7482
G01 X20.8278 Y25.7209
G01 X20.8422 Y25.6238
G01 X20.8476 Y25.5969
G01 X20.8715 Y25.5017
G01 X20.8794 Y25.4754
G01 X20.9125 Y25.3830
G01 X20.9230 Y25.3576
G01 X20.9650 Y25.2689
G01 X20.9779 Y25.2447
G01 X21.0284 Y25.1605
G01 X21.0436 Y25.1376
G01 X21.1021 Y25.0588
G01 X21.1195 Y25.0376
G01 X21.1854 Y24.9649
G01 X21.2049 Y24.9454
G01 X21.2776 Y24.8795
G01 X21.2988 Y24.8621
G01 X21.3776 Y24.8036
G01 X21.4005 Y24.7884
G01 X21.4847 Y24.7379
G01 X21.5089 Y24.7250
G01 X21.5976 Y24.6830
G01 X21.6230 Y24.6725
G01 X21.7154 Y24.6394
G01 X21.7417 Y24.6315
G01 X21.8369 Y24.6076
G01 X21.8638 Y24.6022
G01 X21.9609 Y24.5878
G01 X21.9882 Y24.5852
G01 X22.0863 Y24.5803
G01 X22.1137 Y24.5803
G01 X22.2118 Y24.5852
G01 X22.2391 Y24.5878
G01 X22.3362 Y24.6022
G01 X22.3631 Y24.6076
G01 X22.4583 Y24.6315
G01 X22.4846 Y24.6394
G01 X22.5770 Y24.6725
G01 X22.6024 Y24.6830
G01 X22.6911 Y24.7250
G01 X22.7153 Y24.7379
G01 X22.7995 Y24.7884
G01 X22.8224 Y24.8036
G01 X22.9012 Y24.8621
G01 X22.9224 Y24.8795
G01 X22.9951 Y24.9454
G01 X23.0146 Y24.9649
G01 X23.0805 Y25.0376
G01 X23.0979 Y25.0588
G01 X23.1564 Y25.1376
G01 X23.1716 Y25.1605
G01 X23.2221 Y25.2447
G01 X23.2350 Y25.2689
G01 X23.2770 Y25.3576
G01 X23.2875 Y25.3830
G01 X23.3206 Y25.4754
G01 X23.3285 Y25.5017
G01 X23.3524 Y25.5969
G01 X23.3578 Y25.6238
G01 X23.3722 Y25.7209
G01 X23.3748 Y25.7482
G01 X23.3797 Y25.8463
G01 X23.3797 Y25.8737
G01 X23.3748 Y25.9718
G01 X23.3722 Y25.9991
G01 X23.3578 Y26.0962
G01 X23.3524 Y26.1231
G01 X23.3285 Y26.2183
G01 X23.3206 Y26.2446
G01 X23.2875 Y26.3370
G01 X23.2770 Y26.3624
G01 X23.2350 Y26.4511
G01 X23.2221 Y26.4753
G01 X23.1716 Y26.5595
G01 X23.1564 Y26.5824
G01 X23.0979 Y26.6612
G01 X23.0805 Y26.6824
G01 X23.0146 Y26.7551
G01 X22.9951 Y26.7746
G01 X22.9224 Y26.8405
G01 X22.9012 Y26.8579
G01 X22.8803 Y26.8734
G01 X22.8803 Y27.2742
G01 X22.8799 Y27.2880
G01 X22.8775 Y27.3370
G01 X22.8748 Y27.3643
G01 X22.8676 Y27.4129
G01 X22.8622 Y27.4398
G01 X22.8503 Y27.4875
G01 X22.8423 Y27.5138
G01 X22.8258 Y27.5600
G01 X22.8153 Y27.5854
G01 X22.7943 Y27.6297
G01 X22.7813 Y27.6540
G01 X22.7561 Y27.6961
G01 X22.7408 Y27.7189
G01 X22.7116 Y27.7584
G01 X22.6942 Y27.7796
G01 X22.6612 Y27.8160
G01 X22.6517 Y27.8259
G01 X22.2453 Y28.2324
G01 X22.2453 Y28.9072
G01 X22.3011 Y28.8456
G01 X22.3206 Y28.8261
G01 X22.3860 Y28.7668
G01 X22.4073 Y28.7494
G01 X22.4782 Y28.6968
G01 X22.5010 Y28.6815
G01 X22.5768 Y28.6361
G01 X22.6010 Y28.6232
G01 X22.6809 Y28.5854
G01 X22.7063 Y28.5749
G01 X22.7894 Y28.5451
G01 X22.8157 Y28.5371
G01 X22.9014 Y28.5157
G01 X22.9283 Y28.5103
G01 X23.0157 Y28.4974
G01 X23.0430 Y28.4947
G01 X23.1313 Y28.4903
G01 X23.1450 Y28.4900
G01 X23.4466 Y28.4900
G01 X23.8597 Y28.0768
G01 X23.8597 Y22.8303
G01 X23.8439 Y22.8303
G01 X23.8039 Y22.8744
G01 X23.7844 Y22.8939
G01 X23.7190 Y22.9532
G01 X23.6977 Y22.9706
G01 X23.6268 Y23.0232
G01 X23.6040 Y23.0385
G01 X23.5282 Y23.0839
G01 X23.5040 Y23.0968
G01 X23.4241 Y23.1346
G01 X23.3987 Y23.1451
G01 X23.3156 Y23.1749
G01 X23.2893 Y23.1829
G01 X23.2036 Y23.2043
G01 X23.1767 Y23.2097
G01 X23.0893 Y23.2226
G01 X23.0620 Y23.2253
G01 X22.9737 Y23.2297
G01 X22.9600 Y23.2300
G01 X22.5100 Y23.2300
G01 X22.4963 Y23.2297
G01 X22.4080 Y23.2253
G01 X22.3807 Y23.2226
G01 X22.2933 Y23.2097
G01 X22.2664 Y23.2043
G01 X22.1807 Y23.1829
G01 X22.1544 Y23.1749
G01 X22.0713 Y23.1451
G01 X22.0459 Y23.1346
G01 X21.9660 Y23.0968
G01 X21.9418 Y23.0839
G01 X21.8660 Y23.0385
G01 X21.8432 Y23.0232
G01 X21.7723 Y22.9706
G01 X21.7510 Y22.9532
G01 X21.6856 Y22.8939
G01 X21.6661 Y22.8744
G01 X21.6068 Y22.8090
G01 X21.5894 Y22.7877
G01 X21.5368 Y22.7168
G01 X21.5215 Y22.6940
G01 X21.4761 Y22.6182
G01 X21.4632 Y22.5940
G01 X21.4254 Y22.5141
G01 X21.4149 Y22.4887
G01 X21.3851 Y22.4056
G01 X21.3771 Y22.3793
G01 X21.3557 Y22.2936
G01 X21.3503 Y22.2667
G01 X21.3374 Y22.1793
G01 X21.3347 Y22.1520
G01 X21.3303 Y22.0637
G01 X21.3303 Y22.0363
G01 X21.3347 Y21.9480
G01 X21.3374 Y21.9207
G01 X21.3503 Y21.8333
G01 X21.3557 Y21.8064
G01 X21.3771 Y21.7207
G01 X21.3851 Y21.6944
G01 X21.4149 Y21.6113
G01 X21.4254 Y21.5859
G01 X21.4632 Y21.5060
G01 X21.4761 Y21.4818
G01 X21.5215 Y21.4060
G01 X21.5368 Y21.3832
G01 X21.5894 Y21.3123
G01 X21.6068 Y21.2910
G01 X21.6661 Y21.2256
G01 X21.6856 Y21.2061
G01 X21.7510 Y21.1468
G01 X21.7723 Y21.1294
G01 X21.8432 Y21.0768
G01 X21.8660 Y21.0615
G01 X21.9418 Y21.0161
G01 X21.9660 Y21.0032
G01 X22.0459 Y20.9654
G01 X22.0713 Y20.9549
G01 X22.1544 Y20.9251
G01 X22.1807 Y20.9171
G01 X22.2664 Y20.8957
G01 X22.2933 Y20.8903
G01 X22.3807 Y20.8774
G01 X22.4080 Y20.8747
G01 X22.4963 Y20.8703
G01 X22.5100 Y20.8700
G01 X22.9600 Y20.8700
G01 X22.9737 Y20.8703
G01 X23.0620 Y20.8747
G01 X23.0893 Y20.8774
G01 X23.1767 Y20.8903
G01 X23.2036 Y20.8957
G01 X23.2893 Y20.9171
G01 X23.3156 Y20.9251
G01 X23.3987 Y20.9549
G01 X23.4241 Y20.9654
G01 X23.5040 Y21.0032
G01 X23.5282 Y21.0161
G01 X23.6040 Y21.0615
G01 X23.6268 Y21.0768
G01 X23.6977 Y21.1294
G01 X23.7190 Y21.1468
G01 X23.7844 Y21.2061
G01 X23.8039 Y21.2256
G01 X23.8439 Y21.2697
G01 X26.0711 Y21.2697
G01 X26.1111 Y21.2256
G01 X26.1306 Y21.2061
G01 X26.1960 Y21.1468
G01 X26.2173 Y21.1294
G01 X26.2882 Y21.0768
G01 X26.3110 Y21.0615
G01 X26.3868 Y21.0161
G01 X26.4110 Y21.0032
G01 X26.4909 Y20.9654
G01 X26.5163 Y20.9549
G01 X26.5994 Y20.9251
G01 X26.6257 Y20.9171
G01 X26.7114 Y20.8957
G01 X26.7383 Y20.8903
G01 X26.8257 Y20.8774
G01 X26.8530 Y20.8747
G01 X26.9413 Y20.8703
G01 X26.9550 Y20.8700
G01 X27.4050 Y20.8700
G01 X27.4187 Y20.8703
G01 X27.5070 Y20.8747
G01 X27.5343 Y20.8774
G01 X27.6217 Y20.8903
G01 X27.6486 Y20.8957
G01 X27.7343 Y20.9171
G01 X27.7606 Y20.9251
G01 X27.8437 Y20.9549
G01 X27.8691 Y20.9654
G01 X27.9490 Y21.0032
G01 X27.9732 Y21.0161
G01 X28.0490 Y21.0615
G01 X28.0718 Y21.0768
G01 X28.1427 Y21.1294
G01 X28.1640 Y21.1468
G01 X28.2294 Y21.2061
G01 X28.2489 Y21.2256
G01 X28.3082 Y21.2910
G01 X28.3256 Y21.3123
G01 X28.3782 Y21.3832
G01 X28.3935 Y21.4060
G01 X28.4389 Y21.4818
G01 X28.4518 Y21.5060
G01 X28.4896 Y21.5859
G01 X28.5001 Y21.6113
G01 X28.5299 Y21.6944
G01 X28.5379 Y21.7207
G01 X28.5593 Y21.8064
G01 X28.5647 Y21.8333
G01 X28.5776 Y21.9207
G01 X28.5803 Y21.9480
G01 X28.5847 Y22.0363
G01 X28.5847 Y22.0637
G01 X28.5803 Y22.1520
G01 X28.5776 Y22.1793
G01 X28.5647 Y22.2667
G01 X28.5593 Y22.2936
G01 X28.5379 Y22.3793
G01 X28.5299 Y22.4056
G01 X28.5001 Y22.4887
G01 X28.4896 Y22.5141
G01 X28.4518 Y22.5940
G01 X28.4389 Y22.6182
G01 X28.3935 Y22.6940
G01 X28.3782 Y22.7168
G01 X28.3256 Y22.7877
G01 X28.3082 Y22.8090
G01 X28.2489 Y22.8744
G01 X28.2294 Y22.8939
G01 X28.1640 Y22.9532
G01 X28.1427 Y22.9706
G01 X28.0718 Y23.0232
G01 X28.0490 Y23.0385
G01 X27.9732 Y23.0839
G01 X27.9490 Y23.0968
G01 X27.8691 Y23.1346
G01 X27.8437 Y23.1451
G01 X27.7606 Y23.1749
G01 X27.7343 Y23.1829
G01 X27.6486 Y23.2043
G01 X27.6217 Y23.2097
G01 X27.5343 Y23.2226
G01 X27.5070 Y23.2253
G01 X27.4187 Y23.2297
G01 X27.4050 Y23.2300
G01 X26.9550 Y23.2300
G01 X26.9413 Y23.2297
G01 X26.8530 Y23.2253
G01 X26.8257 Y23.2226
G01 X26.7383 Y23.2097
G01 X26.7114 Y23.2043
G01 X26.6257 Y23.1829
G01 X26.5994 Y23.1749
G01 X26.5163 Y23.1451
G01 X26.4909 Y23.1346
G01 X26.4110 Y23.0968
G01 X26.3868 Y23.0839
G01 X26.3110 Y23.0385
G01 X26.2882 Y23.0232
G01 X26.2173 Y22.9706
G01 X26.1960 Y22.9532
G01 X26.1306 Y22.8939
G01 X26.1111 Y22.8744
G01 X26.0711 Y22.8303
G01 X25.4203 Y22.8303
G01 X25.4203 Y28.4000
G01 X25.4199 Y28.4137
G01 X25.4175 Y28.4628
G01 X25.4148 Y28.4901
G01 X25.4076 Y28.5387
G01 X25.4022 Y28.5656
G01 X25.3903 Y28.6132
G01 X25.3823 Y28.6395
G01 X25.3658 Y28.6858
G01 X25.3553 Y28.7112
G01 X25.3343 Y28.7555
G01 X25.3213 Y28.7798
G01 X25.2961 Y28.8219
G01 X25.2808 Y28.8447
G01 X25.2516 Y28.8842
G01 X25.2342 Y28.9054
G01 X25.2012 Y28.9418
G01 X25.1917 Y28.9517
G01 X24.7429 Y29.4006
G01 X24.7493 Y29.4264
G01 X24.7547 Y29.4533
G01 X24.7676 Y29.5407
G01 X24.7703 Y29.5680
G01 X24.7747 Y29.6563
G01 X24.7747 Y29.6837
G01 X24.7703 Y29.7720
G01 X24.7676 Y29.7993
G01 X24.7547 Y29.8867
G01 X24.7493 Y29.9136
G01 X24.7279 Y29.9993
G01 X24.7199 Y30.0256
G01 X24.6901 Y30.1087
G01 X24.6796 Y30.1341
G01 X24.6418 Y30.2140
G01 X24.6289 Y30.2382
G01 X24.5835 Y30.3140
G01 X24.5682 Y30.3368
G01 X24.5156 Y30.4077
G01 X24.4982 Y30.4290
G01 X24.4389 Y30.4944
G01 X24.4194 Y30.5139
G01 X24.3540 Y30.5732
G01 X24.3327 Y30.5906
G01 X24.2618 Y30.6432
G01 X24.2390 Y30.6585
G01 X24.1632 Y30.7039
G01 X24.1390 Y30.7168
G01 X24.0591 Y30.7546
G01 X24.0337 Y30.7651
G01 X23.9506 Y30.7949
G01 X23.9243 Y30.8029
G01 X23.8386 Y30.8243
G01 X23.8117 Y30.8297
G01 X23.7243 Y30.8426
G01 X23.6970 Y30.8453
G01 X23.6087 Y30.8497
G01 X23.5950 Y30.8500
G01 X23.1450 Y30.8500
G01 X23.1313 Y30.8497
G01 X23.0430 Y30.8453
G01 X23.0157 Y30.8426
G01 X22.9283 Y30.8297
G01 X22.9014 Y30.8243
G01 X22.8157 Y30.8029
G01 X22.7894 Y30.7949
G01 X22.7063 Y30.7651
G01 X22.6809 Y30.7546
G01 X22.6010 Y30.7168
G01 X22.5768 Y30.7039
G01 X22.5010 Y30.6585
G01 X22.4782 Y30.6432
G01 X22.4073 Y30.5906
G01 X22.3860 Y30.5732
G01 X22.3206 Y30.5139
G01 X22.3011 Y30.4944
G01 X22.2453 Y30.4328
G01 X22.2453 Y30.6168
G01 X22.7336 Y31.1051
G01 X22.7894 Y31.0851
G01 X22.8157 Y31.0771
G01 X22.9014 Y31.0557
G01 X22.9283 Y31.0503
G01 X23.0157 Y31.0374
G01 X23.0430 Y31.0347
G01 X23.1313 Y31.0303
G01 X23.1450 Y31.0300
G01 X23.5950 Y31.0300
G01 X23.6087 Y31.0303
G01 X23.6970 Y31.0347
G01 X23.7243 Y31.0374
G01 X23.8117 Y31.0503
G01 X23.8386 Y31.0557
G01 X23.9243 Y31.0771
G01 X23.9506 Y31.0851
G01 X24.0337 Y31.1149
G01 X24.0591 Y31.1254
G01 X24.1390 Y31.1632
G01 X24.1632 Y31.1761
G01 X24.2390 Y31.2215
G01 X24.2618 Y31.2368
G01 X24.3327 Y31.2894
G01 X24.3540 Y31.3068
G01 X24.4194 Y31.3661
G01 X24.4389 Y31.3856
G01 X24.4982 Y31.4510
G01 X24.5156 Y31.4723
G01 X24.5682 Y31.5432
G01 X24.5835 Y31.5660
G01 X24.6289 Y31.6418
G01 X24.6418 Y31.6660
G01 X24.6796 Y31.7459
G01 X24.6901 Y31.7713
G01 X24.7199 Y31.8544
G01 X24.7279 Y31.8807
G01 X24.7493 Y31.9664
G01 X24.7547 Y31.9933
G01 X24.7676 Y32.0807
G01 X24.7703 Y32.1080
G01 X24.7747 Y32.1963
G01 X24.7747 Y32.2237
G01 X24.7703 Y32.3120
G01 X24.7676 Y32.3393
G01 X24.7547 Y32.4267
G01 X24.7493 Y32.4536
G01 X24.7279 Y32.5393
G01 X24.7199 Y32.5656
G01 X24.6901 Y32.6487
G01 X24.6796 Y32.6741
G01 X24.6418 Y32.7540
G01 X24.6289 Y32.7782
G01 X24.5835 Y32.8540
G01 X24.5682 Y32.8768
G01 X24.5156 Y32.9477
G01 X24.4982 Y32.9690
G01 X24.4389 Y33.0344
G01 X24.4194 Y33.0539
G01 X24.3540 Y33.1132
G01 X24.3327 Y33.1306
G01 X24.2618 Y33.1832
G01 X24.2390 Y33.1985
G01 X24.1632 Y33.2439
G01 X24.1390 Y33.2568
G01 X24.0591 Y33.2946
G01 X24.0337 Y33.3051
G01 X23.9506 Y33.3349
G01 X23.9243 Y33.3429
G01 X23.8386 Y33.3643
G01 X23.8117 Y33.3697
G01 X23.7243 Y33.3826
G01 X23.6970 Y33.3853
G01 X23.6087 Y33.3897
G01 X23.5950 Y33.3900
G01 X23.1450 Y33.3900
G01 X23.1313 Y33.3897
G01 X23.0430 Y33.3853
G01 X23.0157 Y33.3826
G01 X22.9283 Y33.3697
G01 X22.9014 Y33.3643
G01 X22.8157 Y33.3429
G01 X22.7894 Y33.3349
G01 X22.7063 Y33.3051
G01 X22.6809 Y33.2946
G01 X22.6010 Y33.2568
G01 X22.5768 Y33.2439
G01 X22.5010 Y33.1985
G01 X22.4782 Y33.1832
G01 X22.4073 Y33.1306
G01 X22.3860 Y33.1132
G01 X22.3206 Y33.0539
G01 X22.3011 Y33.0344
G01 X22.2418 Y32.9690
G01 X22.2244 Y32.9477
G01 X22.1718 Y32.8768
G01 X22.1565 Y32.8540
G01 X22.1111 Y32.7782
G01 X22.0982 Y32.7540
G01 X22.0604 Y32.6741
G01 X22.0499 Y32.6487
G01 X22.0385 Y32.6169
G01 X20.9133 Y31.4917
G01 X20.9038 Y31.4818
G01 X20.8708 Y31.4454
G01 X20.8534 Y31.4242
G01 X20.8242 Y31.3847
G01 X20.8089 Y31.3619
G01 X20.7837 Y31.3198
G01 X20.7707 Y31.2955
G01 X20.7497 Y31.2512
G01 X20.7392 Y31.2258
G01 X20.7227 Y31.1795
G01 X20.7147 Y31.1532
G01 X20.7028 Y31.1056
G01 X20.6974 Y31.0787
G01 X20.6902 Y31.0301
G01 X20.6875 Y31.0028
G01 X20.6851 Y30.9537
G01 X20.6847 Y30.9400
G01 X20.6847 Y30.4328
G01 X20.6289 Y30.4944
G01 X20.6094 Y30.5139
G01 X20.5440 Y30.5732
G01 X20.5227 Y30.5906
G01 X20.4518 Y30.6432
G01 X20.4290 Y30.6585
G01 X20.3532 Y30.7039
G01 X20.3290 Y30.7168
G01 X20.2491 Y30.7546
G01 X20.2237 Y30.7651
G01 X20.1406 Y30.7949
G01 X20.1143 Y30.8029
G01 X20.0286 Y30.8243
G01 X20.0017 Y30.8297
G01 X19.9143 Y30.8426
G01 X19.8870 Y30.8453
G01 X19.7987 Y30.8497
G01 X19.7850 Y30.8500
G01 X19.3350 Y30.8500
G01 X19.3213 Y30.8497
G01 X19.2330 Y30.8453
G01 X19.2057 Y30.8426
G01 X19.1183 Y30.8297
G01 X19.0914 Y30.8243
G01 X19.0057 Y30.8029
G01 X18.9794 Y30.7949
G01 X18.8963 Y30.7651
G01 X18.8709 Y30.7546
G01 X18.7910 Y30.7168
G01 X18.7668 Y30.7039
G01 X18.6910 Y30.6585
G01 X18.6682 Y30.6432
G01 X18.5973 Y30.5906
G01 X18.5760 Y30.5732
G01 X18.5106 Y30.5139
G01 X18.4911 Y30.4944
G01 X18.4318 Y30.4290
G01 X18.4144 Y30.4077
G01 X18.3618 Y30.3368
G01 X18.3465 Y30.3140
G01 X18.3011 Y30.2382
G01 X18.2882 Y30.2140
G01 X18.2504 Y30.1341
G01 X18.2399 Y30.1087
G01 X18.2101 Y30.0256
G01 X18.2021 Y29.9993
G01 X18.1807 Y29.9136
G01 X18.1753 Y29.8867
G01 X18.1624 Y29.7993
G01 X18.1597 Y29.7720
G01 X18.1553 Y29.6837
G01 X18.1553 Y29.6563
G01 X18.1597 Y29.5680
G01 X18.1624 Y29.5407
G01 X18.1753 Y29.4533
G01 X18.1807 Y29.4264
G01 X18.2021 Y29.3407
G01 X18.2044 Y29.3333
G01 X18.1992 Y29.3208
G01 X18.1827 Y29.2745
G01 X18.1747 Y29.2482
G01 X18.1628 Y29.2006
G01 X18.1574 Y29.1737
G01 X18.1502 Y29.1251
G01 X18.1475 Y29.0978
G01 X18.1451 Y29.0487
G01 X18.1447 Y29.0350
G01 X18.1447 Y23.0908
G01 X18.1318 Y23.0839
G01 X18.0560 Y23.0385
G01 X18.0332 Y23.0232
G01 X17.9623 Y22.9706
G01 X17.9410 Y22.9532
G01 X17.8756 Y22.8939
G01 X17.8561 Y22.8744
G01 X17.7968 Y22.8090
G01 X17.7794 Y22.7877
G01 X17.7268 Y22.7168
G01 X17.7115 Y22.6940
G01 X17.6661 Y22.6182
G01 X17.6532 Y22.5940
G01 X17.6154 Y22.5141
G01 X17.6049 Y22.4887
G01 X17.5751 Y22.4056
G01 X17.5671 Y22.3793
G01 X17.5457 Y22.2936
G01 X17.5403 Y22.2667
G01 X17.5274 Y22.1793
G01 X17.5247 Y22.1520
G01 X17.5203 Y22.0637
G01 X17.5203 Y22.0363
G01 X17.5247 Y21.9480
G01 X17.5274 Y21.9207
G01 X17.5403 Y21.8333
G01 X17.5457 Y21.8064
G01 X17.5671 Y21.7207
G01 X17.5751 Y21.6944
G01 X17.6049 Y21.6113
G01 X17.6154 Y21.5859
G01 X17.6532 Y21.5060
G01 X17.6661 Y21.4818
G01 X17.7115 Y21.4060
G01 X17.7268 Y21.3832
G01 X17.7794 Y21.3123
G01 X17.7968 Y21.2910
G01 X17.8561 Y21.2256
G01 X17.8756 Y21.2061
G01 X17.9410 Y21.1468
G01 X17.9623 Y21.1294
G01 X18.0332 Y21.0768
G01 X18.0560 Y21.0615
G01 X18.1318 Y21.0161
G01 X18.1447 Y21.0092
G00 Z2.0000
G00 X18.3219 Y22.9756
G01 F60.00
G01 Z-0.1000
G01 F120.00
G01 X18.3128 Y22.9719
G01 X18.2330 Y22.9341
G01 X18.2243 Y22.9295
G01 X18.1486 Y22.8841
G01 X18.1404 Y22.8786
G01 X18.0695 Y22.8260
G01 X18.0619 Y22.8198
G01 X17.9964 Y22.7605
G01 X17.9895 Y22.7536
G01 X17.9302 Y22.6881
G01 X17.9240 Y22.6805
G01 X17.8714 Y22.6096
G01 X17.8659 Y22.6014
G01 X17.8205 Y22.5257
G01 X17.8159 Y22.5170
G01 X17.7781 Y22.4372
G01 X17.7744 Y22.4281
G01 X17.7446 Y22.3449
G01 X17.7418 Y22.3356
G01 X17.7203 Y22.2499
G01 X17.7184 Y22.2403
G01 X17.7054 Y22.1529
G01 X17.7045 Y22.1431
G01 X17.7001 Y22.0549
G01 X17.7001 Y22.0451
G01 X17.7045 Y21.9569
G01 X17.7054 Y21.9471
G01 X17.7184 Y21.8597
G01 X17.7203 Y21.8501
G01 X17.7418 Y21.7644
G01 X17.7446 Y21.7551
G01 X17.7744 Y21.6719
G01 X17.7781 Y21.6628
G01 X17.8159 Y21.5830
G01 X17.8205 Y21.5743
G01 X17.8659 Y21.4986
G01 X17.8714 Y21.4904
G01 X17.9240 Y21.4195
G01 X17.9302 Y21.4119
G01 X17.9895 Y21.3464
G01 X17.9964 Y21.3395
G01 X18.0619 Y21.2802
G01 X18.0695 Y21.2740
G01 X18.1404 Y21.2214
G01 X18.1486 Y21.2159
G01 X18.2243 Y21.1705
G01 X18.2330 Y21.1659
G01 X18.3128 Y21.1281
G01 X18.3247 Y21.1233
G01 X18.3247 Y20.4367
G01 X18.3128 Y20.4319
G01 X18.2330 Y20.3941
G01 X18.2243 Y20.3895
G01 X18.1486 Y20.3441
G01 X18.1404 Y20.3386
G01 X18.0695 Y20.2860
G01 X18.0619 Y20.2798
G01 X17.9964 Y20.2205
G01 X17.9895 Y20.2136
G01 X17.9302 Y20.1481
G01 X17.9240 Y20.1405
G01 X17.8714 Y20.0696
G01 X17.8659 Y20.0614
G01 X17.8205 Y19.9857
G01 X17.8159 Y19.9770
G01 X17.7781 Y19.8972
G01 X17.7744 Y19.8881
G01 X17.7446 Y19.8049
G01 X17.7418 Y19.7956
G01 X17.7203 Y19.7099
G01 X17.7184 Y19.7003
G01 X17.7054 Y19.6129
G01 X17.7045 Y19.6031
G01 X17.7001 Y19.5149
G01 X17.7001 Y19.5051
G01 X17.7045 Y19.4169
G01 X17.7054 Y19.4071
G01 X17.7184 Y19.3197
G01 X17.7203 Y19.3101
G01 X17.7418 Y19.2244
G01 X17.7446 Y19.2151
G01 X17.7744 Y19.1319
G01 X17.7781 Y19.1228
G01 X17.8159 Y19.0430
G01 X17.8205 Y19.0343
G01 X17.8659 Y18.9586
G01 X17.8714 Y18.9504
G01 X17.9240 Y18.8795
G01 X17.9302 Y18.8719
G01 X17.9895 Y18.8064
G01 X17.9964 Y18.7995
G01 X18.0619 Y18.7402
G01 X18.0695 Y18.7340
G01 X18.1404 Y18.6814
G01 X18.1486 Y18.6759
G01 X18.2243 Y18.6305
G01 X18.2330 Y18.6259
G01 X18.3128 Y18.5881
G01 X18.3219 Y18.5844
G01 X18.4051 Y18.5546
G01 X18.4144 Y18.5518
G01 X18.5001 Y18.5303
G01 X18.5097 Y18.5284
G01 X18.5971 Y18.5154
G01 X18.6069 Y18.5145
G01 X18.6951 Y18.5101
G01 X19.1549 Y18.5101
G01 X19.2431 Y18.5145
G01 X19.2529 Y18.5154
G01 X19.3403 Y18.5284
G01 X19.3499 Y18.5303
G01 X19.4356 Y18.5518
G01 X19.4449 Y18.5546
G01 X19.5281 Y18.5844
G01 X19.5372 Y18.5881
G01 X19.6170 Y18.6259
G01 X19.6257 Y18.6305
G01 X19.7014 Y18.6759
G01 X19.7096 Y18.6814
G01 X19.7805 Y18.7340
G01 X19.7881 Y18.7402
G01 X19.8536 Y18.7995
G01 X19.8605 Y18.8064
G01 X19.9198 Y18.8719
G01 X19.9260 Y18.8795
G01 X19.9485 Y18.9097
G01 X21.7115 Y18.9097
G01 X21.7340 Y18.8795
G01 X21.7402 Y18.8719
G01 X21.7995 Y18.8064
G01 X21.8064 Y18.7995
G01 X21.8719 Y18.7402
G01 X21.8795 Y18.7340
G01 X21.9504 Y18.6814
G01 X21.9586 Y18.6759
G01 X22.0343 Y18.6305
G01 X22.0430 Y18.6259
G01 X22.1228 Y18.5881
G01 X22.1319 Y18.5844
G01 X22.2151 Y18.5546
G01 X22.2244 Y18.5518
G01 X22.3101 Y18.5303
G01 X22.3197 Y18.5284
G01 X22.4071 Y18.5154
G01 X22.4169 Y18.5145
G01 X22.5100 Y18.5100
G01 X22.9649 Y18.5101
G01 X23.0531 Y18.5145
G01 X23.0629 Y18.5154
G01 X23.1503 Y18.5284
G01 X23.1599 Y18.5303
G01 X23.2456 Y18.5518
G01 X23.2549 Y18.5546
G01 X23.3381 Y18.5844
G01 X23.3472 Y18.5881
G01 X23.4270 Y18.6259
G01 X23.4357 Y18.6305
G01 X23.5114 Y18.6759
G01 X23.5196 Y18.6814
G01 X23.5905 Y18.7340
G01 X23.5981 Y18.7402
G01 X23.6636 Y18.7995
G01 X23.6705 Y18.8064
G01 X23.7298 Y18.8719
G01 X23.7360 Y18.8795
G01 X23.7886 Y18.9504
G01 X23.7941 Y18.9586
G01 X23.8395 Y19.0343
G01 X23.8441 Y19.0430
G01 X23.8819 Y19.1228
G01 X23.8856 Y19.1319
G01 X23.9154 Y19.2151
G01 X23.9182 Y19.2244
G01 X23.9397 Y19.3101
G01 X23.9416 Y19.3197
G01 X23.9546 Y19.4071
G01 X23.9555 Y19.4169
G01 X23.9599 Y19.5051
G01 X23.9599 Y19.5149
G01 X23.9555 Y19.6031
G01 X23.9546 Y19.6129
G01 X23.9416 Y19.7003
G01 X23.9397 Y19.7099
G01 X23.9182 Y19.7956
G01 X23.9154 Y19.8049
G01 X23.8856 Y19.8881
G01 X23.8819 Y19.8972
G01 X23.8441 Y19.9770
G01 X23.8395 Y19.9857
G01 X23.7941 Y20.0614
G01 X23.7886 Y20.0696
G01 X23.7360 Y20.1405
G01 X23.7298 Y20.1481
G01 X23.6705 Y20.2136
G01 X23.6636 Y20.2205
G01 X23.5981 Y20.2798
G01 X23.5905 Y20.2860
G01 X23.5196 Y20.3386
G01 X23.5114 Y20.3441
G01 X23.4357 Y20.3895
G01 X23.4270 Y20.3941
G01 X23.3472 Y20.4319
G01 X23.3381 Y20.4356
G01 X23.2549 Y20.4654
G01 X23.2456 Y20.4682
G01 X23.1599 Y20.4897
G01 X23.1503 Y20.4916
G01 X23.0629 Y20.5046
G01 X23.0531 Y20.5055
G01 X22.9600 Y20.5100
G01 X22.5100 Y20.5100
G01 X22.4169 Y20.5055
G01 X22.4071 Y20.5046
G01 X22.3197 Y20.4916
G01 X22.3101 Y20.4897
G01 X22.2244 Y20.4682
G01 X22.2151 Y20.4654
G01 X22.1319 Y20.4356
G01 X22.1228 Y20.4319
G01 X22.0430 Y20.3941
G01 X22.0343 Y20.3895
G01 X21.9586 Y20.3441
G01 X21.9504 Y20.3386
G01 X21.8795 Y20.2860
G01 X21.8719 Y20.2798
G01 X21.8064 Y20.2205
G01 X21.7995 Y20.2136
G01 X21.7402 Y20.1481
G01 X21.7340 Y20.1405
G01 X21.7115 Y20.1103
G01 X19.9485 Y20.1103
G01 X19.9260 Y20.1405
G01 X19.9198 Y20.1481
G01 X19.8605 Y20.2136
G01 X19.8536 Y20.2205
G01 X19.7881 Y20.2798
G01 X19.7805 Y20.2860
G01 X19.7096 Y20.3386
G01 X19.7014 Y20.3441
G01 X19.6257 Y20.3895
G01 X19.6170 Y20.3941
G01 X19.5372 Y20.4319
G01 X19.5253 Y20.4367
G01 X19.5253 Y21.1233
G01 X19.5372 Y21.1281
G01 X19.6170 Y21.1659
G01 X19.6257 Y21.1705
G01 X19.7014 Y21.2159
G01 X19.7096 Y21.2214
G01 X19.7805 Y21.2740
G01 X19.7881 Y21.2802
G01 X19.8536 Y21.3395
G01 X19.8605 Y21.3464
G01 X19.9198 Y21.4119
G01 X19.9260 Y21.4195
G01 X19.9786 Y21.4904
G01 X19.9841 Y21.4986
G01 X20.0295 Y21.5743
G01 X20.0341 Y21.5830
G01 X20.0719 Y21.6628
G01 X20.0756 Y21.6719
G01 X20.1054 Y21.7551
G01 X20.1082 Y21.7644
G01 X20.1297 Y21.8501
G01 X20.1316 Y21.8597
G01 X20.1446 Y21.9471
G01 X20.1455 Y21.9569
G01 X20.1499 Y22.0451
G01 X20.1499 Y22.0549
G01 X20.1455 Y22.1431
G01 X20.1446 Y22.1529
G01 X20.1316 Y22.2403
G01 X20.1297 Y22.2499
G01 X20.1082 Y22.3356
G01 X20.1054 Y22.3449
G01 X20.0756 Y22.4281
G01 X20.0719 Y22.4372
G01 X20.0341 Y22.5170
G01 X20.0295 Y22.5257
G01 X19.9841 Y22.6014
G01 X19.9786 Y22.6096
G01 X19.9260 Y22.6805
G01 X19.9198 Y22.6881
G01 X19.8605 Y22.7536
G01 X19.8536 Y22.7605
G01 X19.7881 Y22.8198
G01 X19.7805 Y22.8260
G01 X19.7096 Y22.8786
G01 X19.7014 Y22.8841
G01 X19.6257 Y22.9295
G01 X19.6170 Y22.9341
G01 X19.5372 Y22.9719
G01 X19.5253 Y22.9767
G01 X19.5253 Y28.6700
G01 X19.7850 Y28.6700
G01 X19.8781 Y28.6745
G01 X19.8879 Y28.6754
G01 X19.9753 Y28.6884
G01 X19.9849 Y28.6903
G01 X20.0706 Y28.7118
G01 X20.0799 Y28.7146
G01 X20.1631 Y28.7444
G01 X20.1722 Y28.7481
G01 X20.2520 Y28.7859
G01 X20.2607 Y28.7905
G01 X20.3364 Y28.8359
G01 X20.3446 Y28.8414
G01 X20.4155 Y28.8940
G01 X20.4231 Y28.9002
G01 X20.4886 Y28.9595
G01 X20.4955 Y28.9664
G01 X20.5548 Y29.0319
G01 X20.5610 Y29.0395
G01 X20.6136 Y29.1104
G01 X20.6191 Y29.1186
G01 X20.6645 Y29.1943
G01 X20.6691 Y29.2030
G01 X20.7069 Y29.2828
G01 X20.7106 Y29.2919
G01 X20.7404 Y29.3751
G01 X20.7432 Y29.3844
G01 X20.7647 Y29.4701
G01 X20.7666 Y29.4797
G01 X20.7796 Y29.5671
G01 X20.7805 Y29.5769
G01 X20.7849 Y29.6651
G01 X20.7849 Y29.6749
G01 X20.7805 Y29.7631
G01 X20.7796 Y29.7729
G01 X20.7666 Y29.8603
G01 X20.7647 Y29.8699
G01 X20.7432 Y29.9556
G01 X20.7404 Y29.9649
G01 X20.7106 Y30.0481
G01 X20.7069 Y30.0572
G01 X20.6691 Y30.1370
G01 X20.6645 Y30.1457
G01 X20.6191 Y30.2214
G01 X20.6136 Y30.2296
G01 X20.5610 Y30.3005
G01 X20.5548 Y30.3081
G01 X20.4955 Y30.3736
G01 X20.4886 Y30.3805
G01 X20.4231 Y30.4398
G01 X20.4155 Y30.4460
G01 X20.3446 Y30.4986
G01 X20.3364 Y30.5041
G01 X20.2607 Y30.5495
G01 X20.2520 Y30.5541
G01 X20.1722 Y30.5919
G01 X20.1631 Y30.5956
G01 X20.0799 Y30.6254
G01 X20.0706 Y30.6282
G01 X19.9849 Y30.6497
G01 X19.9753 Y30.6516
G01 X19.8879 Y30.6646
G01 X19.8781 Y30.6655
G01 X19.7850 Y30.6700
G01 X19.3350 Y30.6700
G01 X19.2419 Y30.6655
G01 X19.2321 Y30.6646
G01 X19.1447 Y30.6516
G01 X19.1351 Y30.6497
G01 X19.0494 Y30.6282
G01 X19.0401 Y30.6254
G01 X18.9569 Y30.5956
G01 X18.9478 Y30.5919
G01 X18.8680 Y30.5541
G01 X18.8593 Y30.5495
G01 X18.7836 Y30.5041
G01 X18.7754 Y30.4986
G01 X18.7045 Y30.4460
G01 X18.6969 Y30.4398
G01 X18.6314 Y30.3805
G01 X18.6245 Y30.3736
G01 X18.5652 Y30.3081
G01 X18.5590 Y30.3005
G01 X18.5064 Y30.2296
G01 X18.5009 Y30.2214
G01 X18.4555 Y30.1457
G01 X18.4509 Y30.1370
G01 X18.4131 Y30.0572
G01 X18.4094 Y30.0481
G01 X18.3796 Y29.9649
G01 X18.3768 Y29.9556
G01 X18.3553 Y29.8699
G01 X18.3534 Y29.8603
G01 X18.3404 Y29.7729
G01 X18.3395 Y29.7631
G01 X18.3351 Y29.6749
G01 X18.3351 Y29.6651
G01 X18.3395 Y29.5769
G01 X18.3404 Y29.5671
G01 X18.3534 Y29.4797
G01 X18.3553 Y29.4701
G01 X18.3768 Y29.3844
G01 X18.3796 Y29.3751
G01 X18.3983 Y29.3227
G01 X18.3934 Y29.3136
G01 X18.3724 Y29.2692
G01 X18.3687 Y29.2601
G01 X18.3521 Y29.2139
G01 X18.3493 Y29.2045
G01 X18.3374 Y29.1569
G01 X18.3354 Y29.1473
G01 X18.3282 Y29.0987
G01 X18.3273 Y29.0889
G01 X18.3247 Y29.0350
G01 X18.3247 Y22.9767
G01 X18.3219 Y22.9756
G00 Z2.0000
G00 X22.1319 Y22.9756
G01 F60.00
G01 Z-0.1000
G01 F120.00
G01 X22.1228 Y22.9719
G01 X22.0430 Y22.9341
G01 X22.0343 Y22.9295
G01 X21.9586 Y22.8841
G01 X21.9504 Y22.8786
G01 X21.8795 Y22.8260
G01 X21.8719 Y22.8198
G01 X21.8064 Y22.7605
G01 X21.7995 Y22.7536
G01 X21.7402 Y22.6881
G01 X21.7340 Y22.6805
G01 X21.6814 Y22.6096
G01 X21.6759 Y22.6014
G01 X21.6305 Y22.5257
G01 X21.6259 Y22.5170
G01 X21.5881 Y22.4372
G01 X21.5844 Y22.4281
G01 X21.5546 Y22.3449
G01 X21.5518 Y22.3356
G01 X21.5303 Y22.2499
G01 X21.5284 Y22.2403
G01 X21.5154 Y22.1529
G01 X21.5145 Y22.1431
G01 X21.5101 Y22.0549
G01 X21.5101 Y22.0451
G01 X21.5145 Y21.9569
G01 X21.5154 Y21.9471
G01 X21.5284 Y21.8597
G01 X21.5303 Y21.8501
G01 X21.5518 Y21.7644
G01 X21.5546 Y21.7551
G01 X21.5844 Y21.6719
G01 X21.5881 Y21.6628
G01 X21.6259 Y21.5830
G01 X21.6305 Y21.5743
G01 X21.6759 Y21.4986
G01 X21.6814 Y21.4904
G01 X21.7340 Y21.4195
G01 X21.7402 Y21.4119
G01 X21.7995 Y21.3464
G01 X21.8064 Y21.3395
G01 X21.8719 Y21.2802
G01 X21.8795 Y21.2740
G01 X21.9504 Y21.2214
G01 X21.9586 Y21.2159
G01 X22.0343 Y21.1705
G01 X22.0430 Y21.1659
G01 X22.1228 Y21.1281
G01 X22.1319 Y21.1244
G01 X22.2151 Y21.0946
G01 X22.2244 Y21.0918
G01 X22.3101 Y21.0703
G01 X22.3197 Y21.0684
G01 X22.4071 Y21.0554
G01 X22.4169 Y21.0545
G01 X22.5051 Y21.0501
G01 X22.9649 Y21.0501
G01 X23.0531 Y21.0545
G01 X23.0629 Y21.0554
G01 X23.1503 Y21.0684
G01 X23.1599 Y21.0703
G01 X23.2456 Y21.0918
G01 X23.2549 Y21.0946
G01 X23.3381 Y21.1244
G01 X23.3472 Y21.1281
G01 X23.4270 Y21.1659
G01 X23.4357 Y21.1705
G01 X23.5114 Y21.2159
G01 X23.5196 Y21.2214
G01 X23.5905 Y21.2740
G01 X23.5981 Y21.2802
G01 X23.6636 Y21.3395
G01 X23.6705 Y21.3464
G01 X23.7298 Y21.4119
G01 X23.7360 Y21.4195
G01 X23.7585 Y21.4497
G01 X26.1565 Y21.4497
G01 X26.1790 Y21.4195
G01 X26.1852 Y21.4119
G01 X26.2445 Y21.3464
G01 X26.2514 Y21.3395
G01 X26.3169 Y21.2802
G01 X26.3245 Y21.2740
G01 X26.3954 Y21.2214
G01 X26.4036 Y21.2159
G01 X26.4793 Y21.1705
G01 X26.4880 Y21.1659
G01 X26.5678 Y21.1281
G01 X26.5769 Y21.1244
G01 X26.6601 Y21.0946
G01 X26.6694 Y21.0918
G01 X26.7551 Y21.0703
G01 X26.7647 Y21.0684
G01 X26.8521 Y21.0554
G01 X26.8619 Y21.0545
G01 X26.9501 Y21.0501
G01 X27.4050 Y21.0500
G01 X27.4981 Y21.0545
G01 X27.5079 Y21.0554
G01 X27.5953 Y21.0684
G01 X27.6049 Y21.0703
G01 X27.6906 Y21.0918
G01 X27.6999 Y21.0946
G01 X27.7831 Y21.1244
G01 X27.7922 Y21.1281
G01 X27.8720 Y21.1659
G01 X27.8807 Y21.1705
G01 X27.9564 Y21.2159
G01 X27.9646 Y21.2214
G01 X28.0355 Y21.2740
G01 X28.0431 Y21.2802
G01 X28.1086 Y21.3395
G01 X28.1155 Y21.3464
G01 X28.1748 Y21.4119
G01 X28.1810 Y21.4195
G01 X28.2336 Y21.4904
G01 X28.2391 Y21.4986
G01 X28.2845 Y21.5743
G01 X28.2891 Y21.5830
G01 X28.3269 Y21.6628
G01 X28.3306 Y21.6719
G01 X28.3604 Y21.7551
G01 X28.3632 Y21.7644
G01 X28.3847 Y21.8501
G01 X28.3866 Y21.8597
G01 X28.3996 Y21.9471
G01 X28.4005 Y21.9569
G01 X28.4049 Y22.0451
G01 X28.4049 Y22.0549
G01 X28.4005 Y22.1431
G01 X28.3996 Y22.1529
G01 X28.3866 Y22.2403
G01 X28.3847 Y22.2499
G01 X28.3632 Y22.3356
G01 X28.3604 Y22.3449
G01 X28.3306 Y22.4281
G01 X28.3269 Y22.4372
G01 X28.2891 Y22.5170
G01 X28.2845 Y22.5257
G01 X28.2391 Y22.6014
G01 X28.2336 Y22.6096
G01 X28.1810 Y22.6805
G01 X28.1748 Y22.6881
G01 X28.1155 Y22.7536
G01 X28.1086 Y22.7605
G01 X28.0431 Y22.8198
G01 X28.0355 Y22.8260
G01 X27.9646 Y22.8786
G01 X27.9564 Y22.8841
G01 X27.8807 Y22.9295
G01 X27.8720 Y22.9341
G01 X27.7922 Y22.9719
G01 X27.7831 Y22.9756
G01 X27.6999 Y23.0054
G01 X27.6906 Y23.0082
G01 X27.6049 Y23.0297
G01 X27.5953 Y23.0316
G01 X27.5079 Y23.0446
G01 X27.4981 Y23.0455
G01 X27.4099 Y23.0499
G01 X26.9550 Y23.0500
G01 X26.8619 Y23.0455
G01 X26.8521 Y23.0446
G01 X26.7647 Y23.0316
G01 X26.7551 Y23.0297
G01 X26.6694 Y23.0082
G01 X26.6601 Y23.0054
G01 X26.5769 Y22.9756
G01 X26.5678 Y22.9719
G01 X26.4880 Y22.9341
G01 X26.4793 Y22.9295
G01 X26.4036 Y22.8841
G01 X26.3954 Y22.8786
G01 X26.3245 Y22.8260
G01 X26.3169 Y22.8198
G01 X26.2514 Y22.7605
G01 X26.2445 Y22.7536
G01 X26.1852 Y22.6881
G01 X26.1790 Y22.6805
G01 X26.1565 Y22.6503
G01 X25.2403 Y22.6503
G01 X25.2403 Y28.4000
G01 X25.2377 Y28.4539
G01 X25.2368 Y28.4637
G01 X25.2296 Y28.5123
G01 X25.2276 Y28.5219
G01 X25.2157 Y28.5695
G01 X25.2129 Y28.5789
G01 X25.1963 Y28.6251
G01 X25.1926 Y28.6342
G01 X25.1716 Y28.6786
G01 X25.1670 Y28.6872
G01 X25.1417 Y28.7293
G01 X25.1363 Y28.7375
G01 X25.1070 Y28.7769
G01 X25.1008 Y28.7845
G01 X25.0644 Y28.8244
G01 X24.5408 Y29.3481
G01 X24.5504 Y29.3751
G01 X24.5532 Y29.3844
G01 X24.5747 Y29.4701
G01 X24.5766 Y29.4797
G01 X24.5896 Y29.5671
G01 X24.5905 Y29.5769
G01 X24.5949 Y29.6651
G01 X24.5949 Y29.6749
G01 X24.5905 Y29.7631
G01 X24.5896 Y29.7729
G01 X24.5766 Y29.8603
G01 X24.5747 Y29.8699
G01 X24.5532 Y29.9556
G01 X24.5504 Y29.9649
G01 X24.5206 Y30.0481
G01 X24.5169 Y30.0572
G01 X24.4791 Y30.1370
G01 X24.4745 Y30.1457
G01 X24.4291 Y30.2214
G01 X24.4236 Y30.2296
G01 X24.3710 Y30.3005
G01 X24.3648 Y30.3081
G01 X24.3055 Y30.3736
G01 X24.2986 Y30.3805
G01 X24.2331 Y30.4398
G01 X24.2255 Y30.4460
G01 X24.1546 Y30.4986
G01 X24.1464 Y30.5041
G01 X24.0707 Y30.5495
G01 X24.0620 Y30.5541
G01 X23.9822 Y30.5919
G01 X23.9731 Y30.5956
G01 X23.8899 Y30.6254
G01 X23.8806 Y30.6282
G01 X23.7949 Y30.6497
G01 X23.7853 Y30.6516
G01 X23.6979 Y30.6646
G01 X23.6881 Y30.6655
G01 X23.5950 Y30.6700
G01 X23.1450 Y30.6700
G01 X23.0519 Y30.6655
G01 X23.0421 Y30.6646
G01 X22.9547 Y30.6516
G01 X22.9451 Y30.6497
G01 X22.8594 Y30.6282
G01 X22.8501 Y30.6254
G01 X22.7669 Y30.5956
G01 X22.7578 Y30.5919
G01 X22.6780 Y30.5541
G01 X22.6693 Y30.5495
G01 X22.5936 Y30.5041
G01 X22.5854 Y30.4986
G01 X22.5145 Y30.4460
G01 X22.5069 Y30.4398
G01 X22.4414 Y30.3805
G01 X22.4345 Y30.3736
G01 X22.3752 Y30.3081
G01 X22.3690 Y30.3005
G01 X22.3164 Y30.2296
G01 X22.3109 Y30.2214
G01 X22.2655 Y30.1457
G01 X22.2609 Y30.1370
G01 X22.2231 Y30.0572
G01 X22.2194 Y30.0481
G01 X22.1896 Y29.9649
G01 X22.1868 Y29.9556
G01 X22.1653 Y29.8699
G01 X22.1634 Y29.8603
G01 X22.1504 Y29.7729
G01 X22.1495 Y29.7631
G01 X22.1451 Y29.6749
G01 X22.1451 Y29.6651
G01 X22.1495 Y29.5769
G01 X22.1504 Y29.5671
G01 X22.1634 Y29.4797
G01 X22.1653 Y29.4701
G01 X22.1868 Y29.3844
G01 X22.1896 Y29.3751
G01 X22.2194 Y29.2919
G01 X22.2231 Y29.2828
G01 X22.2609 Y29.2030
G01 X22.2655 Y29.1943
G01 X22.3109 Y29.1186
G01 X22.3164 Y29.1104
G01 X22.3690 Y29.0395
G01 X22.3752 Y29.0319
G01 X22.4345 Y28.9664
G01 X22.4414 Y28.9595
G01 X22.5069 Y28.9002
G01 X22.5145 Y28.8940
G01 X22.5854 Y28.8414
G01 X22.5936 Y28.8359
G01 X22.6693 Y28.7905
G01 X22.6780 Y28.7859
G01 X22.7578 Y28.7481
G01 X22.7669 Y28.7444
G01 X22.8501 Y28.7146
G01 X22.8594 Y28.7118
G01 X22.9451 Y28.6903
G01 X22.9547 Y28.6884
G01 X23.0421 Y28.6754
G01 X23.0519 Y28.6745
G01 X23.1401 Y28.6701
G01 X23.5211 Y28.6700
G01 X24.0397 Y28.1514
G01 X24.0397 Y22.6503
G01 X23.7585 Y22.6503
G01 X23.7360 Y22.6805
G01 X23.7298 Y22.6881
G01 X23.6705 Y22.7536
G01 X23.6636 Y22.7605
G01 X23.5981 Y22.8198
G01 X23.5905 Y22.8260
G01 X23.5196 Y22.8786
G01 X23.5114 Y22.8841
G01 X23.4357 Y22.9295
G01 X23.4270 Y22.9341
G01 X23.3472 Y22.9719
G01 X23.3381 Y22.9756
G01 X23.2549 Y23.0054
G01 X23.2456 Y23.0082
G01 X23.1599 Y23.0297
G01 X23.1503 Y23.0316
G01 X23.0629 Y23.0446
G01 X23.0531 Y23.0455
G01 X22.9600 Y23.0500
G01 X22.5100 Y23.0500
G01 X22.4169 Y23.0455
G01 X22.4071 Y23.0446
G01 X22.3197 Y23.0316
G01 X22.3101 Y23.0297
G01 X22.2244 Y23.0082
G01 X22.2151 Y23.0054
G01 X22.1319 Y22.9756
G00 Z2.0000
G00 X25.7803 Y23.5951
G01 F60.00
G01 Z-0.1000
G01 F120.00
G01 X25.7803 Y23.1903
G01 X25.9215 Y23.1903
G01 X25.9542 Y23.2199
G01 X26.0028 Y23.2598
G01 X26.0737 Y23.3124
G01 X26.0852 Y23.3200
G01 X26.0737 Y23.3276
G01 X26.0028 Y23.3802
G01 X25.9542 Y23.4201
G01 X25.8888 Y23.4794
G01 X25.8444 Y23.5238
G01 X25.7851 Y23.5892
G01 X25.7803 Y23.5951
G00 Z2.0000
G00 X25.6003 Y24.4755
G01 F60.00
G01 Z-0.1000
G01 F120.00
G01 X25.6003 Y23.0103
G01 X25.9927 Y23.0103
G01 X26.0097 Y23.0272
G01 X26.0751 Y23.0865
G01 X26.1100 Y23.1152
G01 X26.1810 Y23.1678
G01 X26.2185 Y23.1929
G01 X26.2943 Y23.2383
G01 X26.3341 Y23.2596
G01 X26.4139 Y23.2973
G01 X26.4556 Y23.3146
G01 X26.4707 Y23.3200
G01 X26.4556 Y23.3254
G01 X26.4139 Y23.3427
G01 X26.3341 Y23.3804
G01 X26.2943 Y23.4017
G01 X26.2185 Y23.4471
G01 X26.1810 Y23.4722
G01 X26.1100 Y23.5248
G01 X26.0751 Y23.5535
G01 X26.0097 Y23.6128
G01 X25.9778 Y23.6447
G01 X25.9185 Y23.7101
G01 X25.8898 Y23.7450
G01 X25.8372 Y23.8160
G01 X25.8121 Y23.8535
G01 X25.7667 Y23.9293
G01 X25.7454 Y23.9691
G01 X25.7077 Y24.0489
G01 X25.6904 Y24.0906
G01 X25.6606 Y24.1738
G01 X25.6475 Y24.2170
G01 X25.6261 Y24.3026
G01 X25.6173 Y24.3469
G01 X25.6043 Y24.4343
G01 X25.6003 Y24.4755
G00 Z2.0000
G00 X26.5769 Y25.5156
G01 F60.00
G01 Z-0.1000
G01 F120.00
G01 X26.5678 Y25.5119
G01 X26.4880 Y25.4741
G01 X26.4793 Y25.4695
G01 X26.4036 Y25.4241
G01 X26.3954 Y25.4186
G01 X26.3245 Y25.3660
G01 X26.3169 Y25.3598
G01 X26.2514 Y25.3005
G01 X26.2445 Y25.2936
G01 X26.1852 Y25.2281
G01 X26.1790 Y25.2205
G01 X26.1264 Y25.1496
G01 X26.1209 Y25.1414
G01 X26.0755 Y25.0657
G01 X26.0709 Y25.0570
G01 X26.0331 Y24.9772
G01 X26.0294 Y24.9681
G01 X25.9996 Y24.8849
G01 X25.9968 Y24.8756
G01 X25.9753 Y24.7899
G01 X25.9734 Y24.7803
G01 X25.9604 Y24.6929
G01 X25.9595 Y24.6831
G01 X25.9551 Y24.5949
G01 X25.9551 Y24.5851
G01 X25.9595 Y24.4969
G01 X25.9604 Y24.4871
G01 X25.9734 Y24.3997
G01 X25.9753 Y24.3901
G01 X25.9968 Y24.3044
G01 X25.9996 Y24.2951
G01 X26.0294 Y24.2119
G01 X26.0331 Y24.2028
G01 X26.0709 Y24.1230
G01 X26.0755 Y24.1143
G01 X26.1209 Y24.0386
G01 X26.1264 Y24.0304
G01 X26.1790 Y23.9595
G01 X26.1852 Y23.9519
G01 X26.2445 Y23.8864
G01 X26.2514 Y23.8795
G01 X26.3169 Y23.8202
G01 X26.3245 Y23.8140
G01 X26.3954 Y23.7614
G01 X26.4036 Y23.7559
G01 X26.4793 Y23.7105
G01 X26.4880 Y23.7059
G01 X26.5678 Y23.6681
G01 X26.5769 Y23.6644
G01 X26.6601 Y23.6346
G01 X26.6694 Y23.6318
G01 X26.7551 Y23.6103
G01 X26.7647 Y23.6084
G01 X26.8521 Y23.5954
G01 X26.8619 Y23.5945
G01 X26.9550 Y23.5900
G01 X27.4050 Y23.5900
G01 X27.4981 Y23.5945
G01 X27.5079 Y23.5954
G01 X27.5953 Y23.6084
G01 X27.6049 Y23.6103
G01 X27.6906 Y23.6318
G01 X27.6999 Y23.6346
G01 X27.7831 Y23.6644
G01 X27.7922 Y23.6681
G01 X27.8720 Y23.7059
G01 X27.8807 Y23.7105
G01 X27.9564 Y23.7559
G01 X27.9646 Y23.7614
G01 X28.0355 Y23.8140
G01 X28.0431 Y23.8202
G01 X28.1086 Y23.8795
G01 X28.1155 Y23.8864
G01 X28.1748 Y23.9519
G01 X28.1810 Y23.9595
G01 X28.2035 Y23.9897
G01 X30.7414 Y23.9897
G01 X31.1841 Y23.5470
G01 X31.1803 Y23.5298
G01 X31.1659 Y23.4327
G01 X31.1649 Y23.4229
G01 X31.1601 Y23.3249
G01 X31.1601 Y23.3151
G01 X31.1649 Y23.2171
G01 X31.1659 Y23.2073
G01 X31.1803 Y23.1102
G01 X31.1822 Y23.1006
G01 X31.2061 Y23.0054
G01 X31.2089 Y22.9960
G01 X31.2420 Y22.9036
G01 X31.2457 Y22.8946
G01 X31.2877 Y22.8058
G01 X31.2923 Y22.7972
G01 X31.3428 Y22.7130
G01 X31.3482 Y22.7049
G01 X31.4067 Y22.6260
G01 X31.4129 Y22.6185
G01 X31.4788 Y22.5457
G01 X31.4857 Y22.5388
G01 X31.5585 Y22.4729
G01 X31.5660 Y22.4667
G01 X31.6449 Y22.4082
G01 X31.6530 Y22.4028
G01 X31.7372 Y22.3523
G01 X31.7458 Y22.3477
G01 X31.8346 Y22.3057
G01 X31.8436 Y22.3020
G01 X31.9360 Y22.2689
G01 X31.9454 Y22.2661
G01 X32.0406 Y22.2422
G01 X32.0502 Y22.2403
G01 X32.1473 Y22.2259
G01 X32.1571 Y22.2249
G01 X32.2551 Y22.2201
G01 X32.2649 Y22.2201
G01 X32.3629 Y22.2249
G01 X32.3727 Y22.2259
G01 X32.4698 Y22.2403
G01 X32.4794 Y22.2422
G01 X32.5746 Y22.2661
G01 X32.5840 Y22.2689
G01 X32.6764 Y22.3020
G01 X32.6854 Y22.3057
G01 X32.7742 Y22.3477
G01 X32.7828 Y22.3523
G01 X32.8670 Y22.4028
G01 X32.8751 Y22.4082
G01 X32.9540 Y22.4667
G01 X32.9615 Y22.4729
G01 X33.0343 Y22.5388
G01 X33.0412 Y22.5457
G01 X33.1071 Y22.6185
G01 X33.1133 Y22.6260
G01 X33.1718 Y22.7049
G01 X33.1772 Y22.7130
G01 X33.2277 Y22.7972
G01 X33.2323 Y22.8058
G01 X33.2743 Y22.8946
G01 X33.2780 Y22.9036
G01 X33.3111 Y22.9960
G01 X33.3139 Y23.0054
G01 X33.3378 Y23.1006
G01 X33.3397 Y23.1102
G01 X33.3541 Y23.2073
G01 X33.3551 Y23.2171
G01 X33.3599 Y23.3151
G01 X33.3599 Y23.3249
G01 X33.3551 Y23.4229
G01 X33.3541 Y23.4327
G01 X33.3397 Y23.5298
G01 X33.3378 Y23.5394
G01 X33.3139 Y23.6346
G01 X33.3111 Y23.6440
G01 X33.2780 Y23.7364
G01 X33.2743 Y23.7454
G01 X33.2323 Y23.8342
G01 X33.2277 Y23.8428
G01 X33.1772 Y23.9270
G01 X33.1718 Y23.9351
G01 X33.1133 Y24.0140
G01 X33.1071 Y24.0215
G01 X33.0412 Y24.0943
G01 X33.0343 Y24.1012
G01 X32.9615 Y24.1671
G01 X32.9540 Y24.1733
G01 X32.8751 Y24.2318
G01 X32.8670 Y24.2372
