(G-CODE GENERATED BY FLATCAM v8.991 - www.flatcam.org - Version Date: 2019/12/27)

(Name: DiscreteAmp-PTH.drl_cnc)
(Type: G-code from Excellon)
(Units: MM)

(Created on Thursday, 30 April 2020 at 15:08)

(Feedrate: 300.0 mm/min)
(Feedrate rapids 1500.0 mm/min)

(Z_Cut: -2.0 mm)
(Z_Move: 2.0 mm)
(Z Toolchange: 15.0 mm)
(X,Y Toolchange: 0.0000, 0.0000 mm)
(Z Start: None mm)
(Z End: 0.5 mm)
(Steps per circle: 64)
(Preprocessor Excellon: default)

(X range:    5.2400 ...   45.3100  mm)
(Y range:    5.1900 ...   64.3100  mm)

(Spindle Speed: None RPM)
G21
G90
G94




G01 F300.00
G00 Z2.0000

M03
G00 X22.7350 Y37.2900
G01 Z-2.0000
G01 Z0
G00 Z2.0000
G00 X23.3700 Y34.7500
G01 Z-2.0000
G01 Z0
G00 Z2.0000
G00 X23.3700 Y32.2100
G01 Z-2.0000
G01 Z0
G00 Z2.0000
G00 X23.3700 Y29.6700
G01 Z-2.0000
G01 Z0
G00 Z2.0000
G00 X19.5600 Y29.6700
G01 Z-2.0000
G01 Z0
G00 Z2.0000
G00 X19.5600 Y32.2100
G01 Z-2.0000
G01 Z0
G00 Z2.0000
G00 X19.5600 Y34.7500
G01 Z-2.0000
G01 Z0
G00 Z2.0000
G00 X19.5600 Y37.2900
G01 Z-2.0000
G01 Z0
G00 Z2.0000
G00 X16.3850 Y37.2900
G01 Z-2.0000
G01 Z0
G00 Z2.0000
G00 X5.5900 Y38.5600
G01 Z-2.0000
G01 Z0
G00 Z2.0000
G00 X5.5900 Y36.0200
G01 Z-2.0000
G01 Z0
G00 Z2.0000
G00 X5.5900 Y28.4000
G01 Z-2.0000
G01 Z0
G00 Z2.0000
G00 X14.4800 Y25.8600
G01 Z-2.0000
G01 Z0
G00 Z2.0000
G00 X18.9250 Y22.0500
G01 Z-2.0000
G01 Z0
G00 Z2.0000
G00 X22.1000 Y25.8600
G01 Z-2.0000
G01 Z0
G00 Z2.0000
G00 X22.7350 Y22.0500
G01 Z-2.0000
G01 Z0
G00 Z2.0000
G00 X22.7350 Y19.5100
G01 Z-2.0000
G01 Z0
G00 Z2.0000
G00 X22.7350 Y16.9700
G01 Z-2.0000
G01 Z0
G00 Z2.0000
G00 X22.7350 Y13.1600
G01 Z-2.0000
G01 Z0
G00 Z2.0000
G00 X18.9250 Y13.1600
G01 Z-2.0000
G01 Z0
G00 Z2.0000
G00 X18.9250 Y16.9700
G01 Z-2.0000
G01 Z0
G00 Z2.0000
G00 X18.9250 Y19.5100
G01 Z-2.0000
G01 Z0
G00 Z2.0000
G00 X14.4800 Y13.1600
G01 Z-2.0000
G01 Z0
G00 Z2.0000
G00 X14.4800 Y5.5400
G01 Z-2.0000
G01 Z0
G00 Z2.0000
G00 X18.9250 Y5.5400
G01 Z-2.0000
G01 Z0
G00 Z2.0000
G00 X22.7350 Y5.5400
G01 Z-2.0000
G01 Z0
G00 Z2.0000
G00 X27.1800 Y5.5400
G01 Z-2.0000
G01 Z0
G00 Z2.0000
G00 X27.1800 Y13.1600
G01 Z-2.0000
G01 Z0
G00 Z2.0000
G00 X27.1800 Y19.5100
G01 Z-2.0000
G01 Z0
G00 Z2.0000
G00 X27.1800 Y22.0500
G01 Z-2.0000
G01 Z0
G00 Z2.0000
G00 X27.1800 Y24.5900
G01 Z-2.0000
G01 Z0
G00 Z2.0000
G00 X28.4500 Y27.1300
G01 Z-2.0000
G01 Z0
G00 Z2.0000
G00 X28.4500 Y29.6700
G01 Z-2.0000
G01 Z0
G00 Z2.0000
G00 X28.4500 Y32.2100
G01 Z-2.0000
G01 Z0
G00 Z2.0000
G00 X32.2600 Y30.9400
G01 Z-2.0000
G01 Z0
G00 Z2.0000
G00 X32.2600 Y23.3200
G01 Z-2.0000
G01 Z0
G00 Z2.0000
G00 X44.9600 Y25.2250
G01 Z-2.0000
G01 Z0
G00 Z2.0000
G00 X44.9600 Y27.7650
G01 Z-2.0000
G01 Z0
G00 Z2.0000
G00 X44.9600 Y30.3050
G01 Z-2.0000
G01 Z0
G00 Z2.0000
G00 X44.9600 Y45.5450
G01 Z-2.0000
G01 Z0
G00 Z2.0000
G00 X44.9600 Y48.0850
G01 Z-2.0000
G01 Z0
G00 Z2.0000
G00 X44.9600 Y50.6250
G01 Z-2.0000
G01 Z0
G00 Z2.0000
G00 X30.9900 Y52.5300
G01 Z-2.0000
G01 Z0
G00 Z2.0000
G00 X30.9900 Y49.9900
G01 Z-2.0000
G01 Z0
G00 Z2.0000
G00 X30.9900 Y47.4500
G01 Z-2.0000
G01 Z0
G00 Z2.0000
G00 X33.5300 Y41.1000
G01 Z-2.0000
G01 Z0
G00 Z2.0000
G00 X25.9100 Y41.1000
G01 Z-2.0000
G01 Z0
G00 Z2.0000
G00 X22.7350 Y44.9100
G01 Z-2.0000
G01 Z0
G00 Z2.0000
G00 X25.9100 Y47.4500
G01 Z-2.0000
G01 Z0
G00 Z2.0000
G00 X25.9100 Y55.0700
G01 Z-2.0000
G01 Z0
G00 Z2.0000
G00 X30.9900 Y56.3400
G01 Z-2.0000
G01 Z0
G00 Z2.0000
G00 X30.9900 Y63.9600
G01 Z-2.0000
G01 Z0
G00 Z2.0000
G00 X19.5600 Y63.9600
G01 Z-2.0000
G01 Z0
G00 Z2.0000
G00 X14.4800 Y60.1500
G01 Z-2.0000
G01 Z0
G00 Z2.0000
G00 X10.6700 Y60.1500
G01 Z-2.0000
G01 Z0
G00 Z2.0000
G00 X5.5900 Y62.6900
G01 Z-2.0000
G01 Z0
G00 Z2.0000
G00 X5.5900 Y60.1500
G01 Z-2.0000
G01 Z0
G00 Z2.0000
G00 X5.5900 Y57.6100
G01 Z-2.0000
G01 Z0
G00 Z2.0000
G00 X5.5900 Y53.8000
G01 Z-2.0000
G01 Z0
G00 Z2.0000
G00 X5.5900 Y51.2600
G01 Z-2.0000
G01 Z0
G00 Z2.0000
G00 X5.5900 Y48.7200
G01 Z-2.0000
G01 Z0
G00 Z2.0000
G00 X5.5900 Y46.1800
G01 Z-2.0000
G01 Z0
G00 Z2.0000
G00 X10.6700 Y52.5300
G01 Z-2.0000
G01 Z0
G00 Z2.0000
G00 X14.4800 Y52.5300
G01 Z-2.0000
G01 Z0
G00 Z2.0000
G00 X19.5600 Y56.3400
G01 Z-2.0000
G01 Z0
G00 Z2.0000
G00 X19.5600 Y53.8000
G01 Z-2.0000
G01 Z0
G00 Z2.0000
G00 X19.5600 Y51.2600
G01 Z-2.0000
G01 Z0
G00 Z2.0000
G00 X19.5600 Y48.7200
G01 Z-2.0000
G01 Z0
G00 Z2.0000
G00 X19.5600 Y44.9100
G01 Z-2.0000
G01 Z0
G00 Z2.0000
G00 X16.3850 Y44.9100
G01 Z-2.0000
G01 Z0
G00 Z2.0000
M03
G00 X8.1300 Y6.8500
G01 Z-2.0000
G01 Z0
G00 Z2.0000
G00 X8.1300 Y9.3500
G01 Z-2.0000
G01 Z0
G00 Z2.0000
G00 X13.2500 Y22.0500
G01 Z-2.0000
G01 Z0
G00 Z2.0000
G00 X15.7500 Y22.0500
G01 Z-2.0000
G01 Z0
G00 Z2.0000
G00 X14.4800 Y32.2100
G01 Z-2.0000
G01 Z0
G00 Z2.0000
G00 X10.9800 Y32.2100
G01 Z-2.0000
G01 Z0
G00 Z2.0000
M03
G00 X11.3050 Y39.8300
G01 Z-2.0000
G01 Z0
G00 Z2.0000
G00 X11.3050 Y42.3700
G01 Z-2.0000
G01 Z0
G00 Z2.0000
M03
G00 X27.1800 Y36.0200
G01 Z-2.0000
G01 Z0
G00 Z2.0000
G00 X29.7200 Y36.0200
G01 Z-2.0000
G01 Z0
G00 Z2.0000
G00 X32.2600 Y36.0200
G01 Z-2.0000
G01 Z0
G00 Z2.0000
M03
G00 X38.6100 Y40.4650
G01 Z-2.0000
G01 Z0
G00 Z2.0000
G00 X38.6100 Y35.3850
G01 Z-2.0000
G01 Z0
G00 Z2.0000
G00 X38.6100 Y15.0650
G01 Z-2.0000
G01 Z0
G00 Z2.0000
G00 X38.6100 Y60.7850
G01 Z-2.0000
G01 Z0
G00 Z2.0000
M03
G00 X25.2750 Y60.1500
G01 Z-2.0000
G01 Z0
G00 Z2.0000
G00 X7.4950 Y22.6850
G01 Z-2.0000
G01 Z0
G00 Z2.0000
G00 X7.4950 Y15.0650
G01 Z-2.0000
G01 Z0
G00 Z2.0000
G00 X32.8950 Y9.9850
G01 Z-2.0000
G01 Z0
G00 Z2.0000
M05
G00 Z0.50
G00 X0.0 Y0.0

